(Exported by FreeCAD)
(Post Processor: linuxcnc_full_rotation_4axis_post)
(Output Time:2023-11-18 09:36:30.432391)
(begin preamble)
G17 G54 G40 G49 G80 G90
G20
(begin operation: Fixture)
(machine units: in/min)
G54 
(finish operation: Fixture)
(begin operation: TC: Endmill_1,4in_002)
(machine units: in/min)
(TC: Endmill_1,4in_002) 
M5
M6 T3 
G43 H3 
M3 S5000 
(finish operation: TC: Endmill_1,4in_002)
(begin operation: Surface)
(machine units: in/min)
(Coolant On:Mist)
M7
(Surface) 
(Surface) 
(Tool type: endmill) 
(Compensated Tool Path. Diameter: 6.35) 
(Sample interval: 0.9905999999999999) 
(Step over %: 80.0) 
() 
G0 Z3.0000 
G0 Z1.3106 
G0 Z1.3106 
G1 Z1.3106 
G0 A0.0000 
G1 X-3.9370 Y0.0000 F12.9696 
G1 Z1.0436 F12.9696 
G1 X-3.9370 Y0.0000 Z1.0436 A0.0000 F12.9696 
G1 X-3.9370 Y0.0000 Z1.0436 A-2.1413 F12.9696 
G1 X-3.9370 Y0.0000 Z1.0436 A-4.2825 F12.9696 
G1 X-3.9370 Y0.0000 Z1.0436 A-6.4238 F12.9696 
G1 X-3.9370 Y0.0000 Z1.0436 A-8.5651 F12.9696 
G1 X-3.9370 Y0.0000 Z1.0436 A-10.7064 F12.9696 
G1 X-3.9370 Y0.0000 Z1.0436 A-12.8476 F12.9696 
G1 X-3.9370 Y0.0000 Z1.0436 A-14.9889 F12.9696 
G1 X-3.9370 Y0.0000 Z1.0436 A-17.1302 F12.9696 
G1 X-3.9370 Y0.0000 Z1.0436 A-19.2715 F12.9696 
G1 X-3.9370 Y0.0000 Z1.0436 A-21.4127 F12.9696 
G1 X-3.9370 Y0.0000 Z1.0436 A-23.5540 F12.9696 
G1 X-3.9370 Y0.0000 Z1.0436 A-25.6953 F12.9696 
G1 X-3.9370 Y0.0000 Z1.0436 A-27.8366 F12.9696 
G1 X-3.9370 Y0.0000 Z1.0436 A-29.9778 F12.9696 
G1 X-3.9370 Y0.0000 Z1.0436 A-32.1191 F12.9696 
G1 X-3.9370 Y0.0000 Z1.0436 A-34.2604 F12.9696 
G1 X-3.9370 Y0.0000 Z1.0436 A-36.4017 F12.9696 
G1 X-3.9370 Y0.0000 Z1.0436 A-38.5429 F12.9696 
G1 X-3.9370 Y0.0000 Z1.0436 A-40.6842 F12.9696 
G1 X-3.9370 Y0.0000 Z1.0436 A-42.8255 F12.9696 
G1 X-3.9370 Y0.0000 Z1.0436 A-44.9668 F12.9696 
G1 X-3.9370 Y0.0000 Z1.0436 A-47.1080 F12.9696 
G1 X-3.9370 Y0.0000 Z1.0436 A-49.2493 F12.9696 
G1 X-3.9370 Y0.0000 Z1.0436 A-51.3906 F12.9696 
G1 X-3.9370 Y0.0000 Z1.0436 A-53.5319 F12.9696 
G1 X-3.9370 Y0.0000 Z1.0436 A-55.6731 F12.9696 
G1 X-3.9370 Y0.0000 Z1.0436 A-57.8144 F12.9696 
G1 X-3.9370 Y0.0000 Z1.0436 A-59.9557 F12.9696 
G1 X-3.9370 Y0.0000 Z1.0436 A-62.0970 F12.9696 
G1 X-3.9370 Y0.0000 Z1.0436 A-64.2382 F12.9696 
G1 X-3.9370 Y0.0000 Z1.0436 A-66.3795 F12.9696 
G1 X-3.9370 Y0.0000 Z1.0436 A-68.5208 F12.9696 
G1 X-3.9370 Y0.0000 Z1.0436 A-70.6621 F12.9696 
G1 X-3.9370 Y0.0000 Z1.0436 A-72.8033 F12.9696 
G1 X-3.9370 Y0.0000 Z1.0436 A-74.9446 F12.9696 
G1 X-3.9370 Y0.0000 Z1.0436 A-77.0859 F12.9696 
G1 X-3.9370 Y0.0000 Z1.0436 A-79.2272 F12.9696 
G1 X-3.9370 Y0.0000 Z1.0436 A-81.3684 F12.9696 
G1 X-3.9370 Y0.0000 Z1.0436 A-83.5097 F12.9696 
G1 X-3.9370 Y0.0000 Z1.0436 A-85.6510 F12.9696 
G1 X-3.9370 Y0.0000 Z1.0436 A-87.7922 F12.9696 
G1 X-3.9370 Y0.0000 Z1.0436 A-89.9335 F12.9696 
G1 X-3.9370 Y0.0000 Z1.0436 A-92.0748 F12.9696 
G1 X-3.9370 Y0.0000 Z1.0436 A-94.2161 F12.9696 
G1 X-3.9370 Y0.0000 Z1.0436 A-96.3573 F12.9696 
G1 X-3.9370 Y0.0000 Z1.0436 A-98.4986 F12.9696 
G1 X-3.9370 Y0.0000 Z1.0436 A-100.6399 F12.9696 
G1 X-3.9370 Y0.0000 Z1.0436 A-102.7812 F12.9696 
G1 X-3.9370 Y0.0000 Z1.0436 A-104.9224 F12.9696 
G1 X-3.9370 Y0.0000 Z1.0436 A-107.0637 F12.9696 
G1 X-3.9370 Y0.0000 Z1.0436 A-109.2050 F12.9696 
G1 X-3.9370 Y0.0000 Z1.0436 A-111.3463 F12.9696 
G1 X-3.9370 Y0.0000 Z1.0436 A-113.4875 F12.9696 
G1 X-3.9370 Y0.0000 Z1.0436 A-115.6288 F12.9696 
G1 X-3.9370 Y0.0000 Z1.0436 A-117.7701 F12.9696 
G1 X-3.9370 Y0.0000 Z1.0436 A-119.9114 F12.9696 
G1 X-3.9370 Y0.0000 Z1.0436 A-122.0526 F12.9696 
G1 X-3.9370 Y0.0000 Z1.0436 A-124.1939 F12.9696 
G1 X-3.9370 Y0.0000 Z1.0436 A-126.3352 F12.9696 
G1 X-3.9370 Y0.0000 Z1.0436 A-128.4765 F12.9696 
G1 X-3.9370 Y0.0000 Z1.0436 A-130.6177 F12.9696 
G1 X-3.9370 Y0.0000 Z1.0436 A-132.7590 F12.9696 
G1 X-3.9370 Y0.0000 Z1.0436 A-134.9003 F12.9696 
G1 X-3.9370 Y0.0000 Z1.0436 A-137.0416 F12.9696 
G1 X-3.9370 Y0.0000 Z1.0436 A-139.1828 F12.9696 
G1 X-3.9370 Y0.0000 Z1.0436 A-141.3241 F12.9696 
G1 X-3.9370 Y0.0000 Z1.0436 A-143.4654 F12.9696 
G1 X-3.9370 Y0.0000 Z1.0436 A-145.6067 F12.9696 
G1 X-3.9370 Y0.0000 Z1.0436 A-147.7479 F12.9696 
G1 X-3.9370 Y0.0000 Z1.0436 A-149.8892 F12.9696 
G1 X-3.9370 Y0.0000 Z1.0436 A-152.0305 F12.9696 
G1 X-3.9370 Y0.0000 Z1.0436 A-154.1718 F12.9696 
G1 X-3.9370 Y0.0000 Z1.0436 A-156.3130 F12.9696 
G1 X-3.9370 Y0.0000 Z1.0436 A-158.4543 F12.9696 
G1 X-3.9370 Y0.0000 Z1.0436 A-160.5956 F12.9696 
G1 X-3.9370 Y0.0000 Z1.0436 A-162.7369 F12.9696 
G1 X-3.9370 Y0.0000 Z1.0436 A-164.8781 F12.9696 
G1 X-3.9370 Y0.0000 Z1.0436 A-167.0194 F12.9696 
G1 X-3.9370 Y0.0000 Z1.0436 A-169.1607 F12.9696 
G1 X-3.9370 Y0.0000 Z1.0436 A-171.3019 F12.9696 
G1 X-3.9370 Y0.0000 Z1.0436 A-173.4432 F12.9696 
G1 X-3.9370 Y0.0000 Z1.0436 A-175.5845 F12.9696 
G1 X-3.9370 Y0.0000 Z1.0436 A-177.7258 F12.9696 
G1 X-3.9370 Y0.0000 Z1.0436 A-179.8670 F12.9696 
G1 X-3.9370 Y0.0000 Z1.0436 A-182.0083 F12.9696 
G1 X-3.9370 Y0.0000 Z1.0436 A-184.1496 F12.9696 
G1 X-3.9370 Y0.0000 Z1.0436 A-186.2909 F12.9696 
G1 X-3.9370 Y0.0000 Z1.0436 A-188.4321 F12.9696 
G1 X-3.9370 Y0.0000 Z1.0436 A-190.5734 F12.9696 
G1 X-3.9370 Y0.0000 Z1.0436 A-192.7147 F12.9696 
G1 X-3.9370 Y0.0000 Z1.0436 A-194.8560 F12.9696 
G1 X-3.9370 Y0.0000 Z1.0436 A-196.9972 F12.9696 
G1 X-3.9370 Y0.0000 Z1.0436 A-199.1385 F12.9696 
G1 X-3.9370 Y0.0000 Z1.0436 A-201.2798 F12.9696 
G1 X-3.9370 Y0.0000 Z1.0436 A-203.4211 F12.9696 
G1 X-3.9370 Y0.0000 Z1.0436 A-205.5623 F12.9696 
G1 X-3.9370 Y0.0000 Z1.0436 A-207.7036 F12.9696 
G1 X-3.9370 Y0.0000 Z1.0436 A-209.8449 F12.9696 
G1 X-3.9370 Y0.0000 Z1.0436 A-211.9862 F12.9696 
G1 X-3.9370 Y0.0000 Z1.0436 A-214.1274 F12.9696 
G1 X-3.9370 Y0.0000 Z1.0436 A-216.2687 F12.9696 
G1 X-3.9370 Y0.0000 Z1.0436 A-218.4100 F12.9696 
G1 X-3.9370 Y0.0000 Z1.0436 A-220.5513 F12.9696 
G1 X-3.9370 Y0.0000 Z1.0436 A-222.6925 F12.9696 
G1 X-3.9370 Y0.0000 Z1.0436 A-224.8338 F12.9696 
G1 X-3.9370 Y0.0000 Z1.0436 A-226.9751 F12.9696 
G1 X-3.9370 Y0.0000 Z1.0436 A-229.1164 F12.9696 
G1 X-3.9370 Y0.0000 Z1.0436 A-231.2576 F12.9696 
G1 X-3.9370 Y0.0000 Z1.0436 A-233.3989 F12.9696 
G1 X-3.9370 Y0.0000 Z1.0436 A-235.5402 F12.9696 
G1 X-3.9370 Y0.0000 Z1.0436 A-237.6815 F12.9696 
G1 X-3.9370 Y0.0000 Z1.0436 A-239.8227 F12.9696 
G1 X-3.9370 Y0.0000 Z1.0436 A-241.9640 F12.9696 
G1 X-3.9370 Y0.0000 Z1.0436 A-244.1053 F12.9696 
G1 X-3.9370 Y0.0000 Z1.0436 A-246.2466 F12.9696 
G1 X-3.9370 Y0.0000 Z1.0436 A-248.3878 F12.9696 
G1 X-3.9370 Y0.0000 Z1.0436 A-250.5291 F12.9696 
G1 X-3.9370 Y0.0000 Z1.0436 A-252.6704 F12.9696 
G1 X-3.9370 Y0.0000 Z1.0436 A-254.8116 F12.9696 
G1 X-3.9370 Y0.0000 Z1.0436 A-256.9529 F12.9696 
G1 X-3.9370 Y0.0000 Z1.0436 A-259.0942 F12.9696 
G1 X-3.9370 Y0.0000 Z1.0436 A-261.2355 F12.9696 
G1 X-3.9370 Y0.0000 Z1.0436 A-263.3767 F12.9696 
G1 X-3.9370 Y0.0000 Z1.0436 A-265.5180 F12.9696 
G1 X-3.9370 Y0.0000 Z1.0436 A-267.6593 F12.9696 
G1 X-3.9370 Y0.0000 Z1.0436 A-269.8006 F12.9696 
G1 X-3.9370 Y0.0000 Z1.0436 A-271.9418 F12.9696 
G1 X-3.9370 Y0.0000 Z1.0436 A-274.0831 F12.9696 
G1 X-3.9370 Y0.0000 Z1.0436 A-276.2244 F12.9696 
G1 X-3.9370 Y0.0000 Z1.0436 A-278.3657 F12.9696 
G1 X-3.9370 Y0.0000 Z1.0436 A-280.5069 F12.9696 
G1 X-3.9370 Y0.0000 Z1.0436 A-282.6482 F12.9696 
G1 X-3.9370 Y0.0000 Z1.0436 A-284.7895 F12.9696 
G1 X-3.9370 Y0.0000 Z1.0436 A-286.9308 F12.9696 
G1 X-3.9370 Y0.0000 Z1.0436 A-289.0720 F12.9696 
G1 X-3.9370 Y0.0000 Z1.0436 A-291.2133 F12.9696 
G1 X-3.9370 Y0.0000 Z1.0436 A-293.3546 F12.9696 
G1 X-3.9370 Y0.0000 Z1.0436 A-295.4959 F12.9696 
G1 X-3.9370 Y0.0000 Z1.0436 A-297.6371 F12.9696 
G1 X-3.9370 Y0.0000 Z1.0436 A-299.7784 F12.9696 
G1 X-3.9370 Y0.0000 Z1.0436 A-301.9197 F12.9696 
G1 X-3.9370 Y0.0000 Z1.0436 A-304.0610 F12.9696 
G1 X-3.9370 Y0.0000 Z1.0436 A-306.2022 F12.9696 
G1 X-3.9370 Y0.0000 Z1.0436 A-308.3435 F12.9696 
G1 X-3.9370 Y0.0000 Z1.0436 A-310.4848 F12.9696 
G1 X-3.9370 Y0.0000 Z1.0436 A-312.6261 F12.9696 
G1 X-3.9370 Y0.0000 Z1.0436 A-314.7673 F12.9696 
G1 X-3.9370 Y0.0000 Z1.0436 A-316.9086 F12.9696 
G1 X-3.9370 Y0.0000 Z1.0436 A-319.0499 F12.9696 
G1 X-3.9370 Y0.0000 Z1.0436 A-321.1912 F12.9696 
G1 X-3.9370 Y0.0000 Z1.0436 A-323.3324 F12.9696 
G1 X-3.9370 Y0.0000 Z1.0436 A-325.4737 F12.9696 
G1 X-3.9370 Y0.0000 Z1.0436 A-327.6150 F12.9696 
G1 X-3.9370 Y0.0000 Z1.0436 A-329.7563 F12.9696 
G1 X-3.9370 Y0.0000 Z1.0436 A-331.8975 F12.9696 
G1 X-3.9370 Y0.0000 Z1.0436 A-334.0388 F12.9696 
G1 X-3.9370 Y0.0000 Z1.0436 A-336.1801 F12.9696 
G1 X-3.9370 Y0.0000 Z1.0436 A-338.3213 F12.9696 
G1 X-3.9370 Y0.0000 Z1.0436 A-340.4626 F12.9696 
G1 X-3.9370 Y0.0000 Z1.0436 A-342.6039 F12.9696 
G1 X-3.9370 Y0.0000 Z1.0436 A-344.7452 F12.9696 
G1 X-3.9370 Y0.0000 Z1.0436 A-346.8864 F12.9696 
G1 X-3.9370 Y0.0000 Z1.0436 A-349.0277 F12.9696 
G1 X-3.9370 Y0.0000 Z1.0436 A-351.1690 F12.9696 
G1 X-3.9370 Y0.0000 Z1.0436 A-353.3103 F12.9696 
G1 X-3.9370 Y0.0000 Z1.0436 A-355.4515 F12.9696 
G1 X-3.9370 Y0.0000 Z1.0436 A-357.5928 F12.9696 
G1 X-3.9370 Y0.0000 Z1.0436 A-359.7341 F12.9696 
G1 X-3.9370 Y0.0000 Z1.0436 A-359.7341 F12.9696 
G1 Z1.2404 
G0 A0.0000 
G1 X-3.7402 Y0.0000 F12.9696 
G1 Z1.0436 F12.9696 
G1 X-3.7402 Y0.0000 Z1.0436 A0.0000 F12.9696 
G1 X-3.7402 Y0.0000 Z1.0436 A-2.1413 F12.9696 
G1 X-3.7402 Y0.0000 Z1.0436 A-4.2825 F12.9696 
G1 X-3.7402 Y0.0000 Z1.0436 A-6.4238 F12.9696 
G1 X-3.7402 Y0.0000 Z1.0436 A-8.5651 F12.9696 
G1 X-3.7402 Y0.0000 Z1.0436 A-10.7064 F12.9696 
G1 X-3.7402 Y0.0000 Z1.0436 A-12.8476 F12.9696 
G1 X-3.7402 Y0.0000 Z1.0436 A-14.9889 F12.9696 
G1 X-3.7402 Y0.0000 Z1.0436 A-17.1302 F12.9696 
G1 X-3.7402 Y0.0000 Z1.0436 A-19.2715 F12.9696 
G1 X-3.7402 Y0.0000 Z1.0436 A-21.4127 F12.9696 
G1 X-3.7402 Y0.0000 Z1.0436 A-23.5540 F12.9696 
G1 X-3.7402 Y0.0000 Z1.0436 A-25.6953 F12.9696 
G1 X-3.7402 Y0.0000 Z1.0436 A-27.8366 F12.9696 
G1 X-3.7402 Y0.0000 Z1.0436 A-29.9778 F12.9696 
G1 X-3.7402 Y0.0000 Z1.0436 A-32.1191 F12.9696 
G1 X-3.7402 Y0.0000 Z1.0436 A-34.2604 F12.9696 
G1 X-3.7402 Y0.0000 Z1.0436 A-36.4017 F12.9696 
G1 X-3.7402 Y0.0000 Z1.0436 A-38.5429 F12.9696 
G1 X-3.7402 Y0.0000 Z1.0436 A-40.6842 F12.9696 
G1 X-3.7402 Y0.0000 Z1.0436 A-42.8255 F12.9696 
G1 X-3.7402 Y0.0000 Z1.0436 A-44.9668 F12.9696 
G1 X-3.7402 Y0.0000 Z1.0436 A-47.1080 F12.9696 
G1 X-3.7402 Y0.0000 Z1.0436 A-49.2493 F12.9696 
G1 X-3.7402 Y0.0000 Z1.0436 A-51.3906 F12.9696 
G1 X-3.7402 Y0.0000 Z1.0436 A-53.5319 F12.9696 
G1 X-3.7402 Y0.0000 Z1.0436 A-55.6731 F12.9696 
G1 X-3.7402 Y0.0000 Z1.0436 A-57.8144 F12.9696 
G1 X-3.7402 Y0.0000 Z1.0436 A-59.9557 F12.9696 
G1 X-3.7402 Y0.0000 Z1.0436 A-62.0970 F12.9696 
G1 X-3.7402 Y0.0000 Z1.0436 A-64.2382 F12.9696 
G1 X-3.7402 Y0.0000 Z1.0436 A-66.3795 F12.9696 
G1 X-3.7402 Y0.0000 Z1.0436 A-68.5208 F12.9696 
G1 X-3.7402 Y0.0000 Z1.0436 A-70.6621 F12.9696 
G1 X-3.7402 Y0.0000 Z1.0436 A-72.8033 F12.9696 
G1 X-3.7402 Y0.0000 Z1.0436 A-74.9446 F12.9696 
G1 X-3.7402 Y0.0000 Z1.0436 A-77.0859 F12.9696 
G1 X-3.7402 Y0.0000 Z1.0436 A-79.2272 F12.9696 
G1 X-3.7402 Y0.0000 Z1.0436 A-81.3684 F12.9696 
G1 X-3.7402 Y0.0000 Z1.0436 A-83.5097 F12.9696 
G1 X-3.7402 Y0.0000 Z1.0436 A-85.6510 F12.9696 
G1 X-3.7402 Y0.0000 Z1.0436 A-87.7922 F12.9696 
G1 X-3.7402 Y0.0000 Z1.0436 A-89.9335 F12.9696 
G1 X-3.7402 Y0.0000 Z1.0436 A-92.0748 F12.9696 
G1 X-3.7402 Y0.0000 Z1.0436 A-94.2161 F12.9696 
G1 X-3.7402 Y0.0000 Z1.0436 A-96.3573 F12.9696 
G1 X-3.7402 Y0.0000 Z1.0436 A-98.4986 F12.9696 
G1 X-3.7402 Y0.0000 Z1.0436 A-100.6399 F12.9696 
G1 X-3.7402 Y0.0000 Z1.0436 A-102.7812 F12.9696 
G1 X-3.7402 Y0.0000 Z1.0436 A-104.9224 F12.9696 
G1 X-3.7402 Y0.0000 Z1.0436 A-107.0637 F12.9696 
G1 X-3.7402 Y0.0000 Z1.0436 A-109.2050 F12.9696 
G1 X-3.7402 Y0.0000 Z1.0436 A-111.3463 F12.9696 
G1 X-3.7402 Y0.0000 Z1.0436 A-113.4875 F12.9696 
G1 X-3.7402 Y0.0000 Z1.0436 A-115.6288 F12.9696 
G1 X-3.7402 Y0.0000 Z1.0436 A-117.7701 F12.9696 
G1 X-3.7402 Y0.0000 Z1.0436 A-119.9114 F12.9696 
G1 X-3.7402 Y0.0000 Z1.0436 A-122.0526 F12.9696 
G1 X-3.7402 Y0.0000 Z1.0436 A-124.1939 F12.9696 
G1 X-3.7402 Y0.0000 Z1.0436 A-126.3352 F12.9696 
G1 X-3.7402 Y0.0000 Z1.0436 A-128.4765 F12.9696 
G1 X-3.7402 Y0.0000 Z1.0436 A-130.6177 F12.9696 
G1 X-3.7402 Y0.0000 Z1.0436 A-132.7590 F12.9696 
G1 X-3.7402 Y0.0000 Z1.0436 A-134.9003 F12.9696 
G1 X-3.7402 Y0.0000 Z1.0436 A-137.0416 F12.9696 
G1 X-3.7402 Y0.0000 Z1.0436 A-139.1828 F12.9696 
G1 X-3.7402 Y0.0000 Z1.0436 A-141.3241 F12.9696 
G1 X-3.7402 Y0.0000 Z1.0436 A-143.4654 F12.9696 
G1 X-3.7402 Y0.0000 Z1.0436 A-145.6067 F12.9696 
G1 X-3.7402 Y0.0000 Z1.0436 A-147.7479 F12.9696 
G1 X-3.7402 Y0.0000 Z1.0436 A-149.8892 F12.9696 
G1 X-3.7402 Y0.0000 Z1.0436 A-152.0305 F12.9696 
G1 X-3.7402 Y0.0000 Z1.0436 A-154.1718 F12.9696 
G1 X-3.7402 Y0.0000 Z1.0436 A-156.3130 F12.9696 
G1 X-3.7402 Y0.0000 Z1.0436 A-158.4543 F12.9696 
G1 X-3.7402 Y0.0000 Z1.0436 A-160.5956 F12.9696 
G1 X-3.7402 Y0.0000 Z1.0436 A-162.7369 F12.9696 
G1 X-3.7402 Y0.0000 Z1.0436 A-164.8781 F12.9696 
G1 X-3.7402 Y0.0000 Z1.0436 A-167.0194 F12.9696 
G1 X-3.7402 Y0.0000 Z1.0436 A-169.1607 F12.9696 
G1 X-3.7402 Y0.0000 Z1.0436 A-171.3019 F12.9696 
G1 X-3.7402 Y0.0000 Z1.0436 A-173.4432 F12.9696 
G1 X-3.7402 Y0.0000 Z1.0436 A-175.5845 F12.9696 
G1 X-3.7402 Y0.0000 Z1.0436 A-177.7258 F12.9696 
G1 X-3.7402 Y0.0000 Z1.0436 A-179.8670 F12.9696 
G1 X-3.7402 Y0.0000 Z1.0436 A-182.0083 F12.9696 
G1 X-3.7402 Y0.0000 Z1.0436 A-184.1496 F12.9696 
G1 X-3.7402 Y0.0000 Z1.0436 A-186.2909 F12.9696 
G1 X-3.7402 Y0.0000 Z1.0436 A-188.4321 F12.9696 
G1 X-3.7402 Y0.0000 Z1.0436 A-190.5734 F12.9696 
G1 X-3.7402 Y0.0000 Z1.0436 A-192.7147 F12.9696 
G1 X-3.7402 Y0.0000 Z1.0436 A-194.8560 F12.9696 
G1 X-3.7402 Y0.0000 Z1.0436 A-196.9972 F12.9696 
G1 X-3.7402 Y0.0000 Z1.0436 A-199.1385 F12.9696 
G1 X-3.7402 Y0.0000 Z1.0436 A-201.2798 F12.9696 
G1 X-3.7402 Y0.0000 Z1.0436 A-203.4211 F12.9696 
G1 X-3.7402 Y0.0000 Z1.0436 A-205.5623 F12.9696 
G1 X-3.7402 Y0.0000 Z1.0436 A-207.7036 F12.9696 
G1 X-3.7402 Y0.0000 Z1.0436 A-209.8449 F12.9696 
G1 X-3.7402 Y0.0000 Z1.0436 A-211.9862 F12.9696 
G1 X-3.7402 Y0.0000 Z1.0436 A-214.1274 F12.9696 
G1 X-3.7402 Y0.0000 Z1.0436 A-216.2687 F12.9696 
G1 X-3.7402 Y0.0000 Z1.0436 A-218.4100 F12.9696 
G1 X-3.7402 Y0.0000 Z1.0436 A-220.5513 F12.9696 
G1 X-3.7402 Y0.0000 Z1.0436 A-222.6925 F12.9696 
G1 X-3.7402 Y0.0000 Z1.0436 A-224.8338 F12.9696 
G1 X-3.7402 Y0.0000 Z1.0436 A-226.9751 F12.9696 
G1 X-3.7402 Y0.0000 Z1.0436 A-229.1164 F12.9696 
G1 X-3.7402 Y0.0000 Z1.0436 A-231.2576 F12.9696 
G1 X-3.7402 Y0.0000 Z1.0436 A-233.3989 F12.9696 
G1 X-3.7402 Y0.0000 Z1.0436 A-235.5402 F12.9696 
G1 X-3.7402 Y0.0000 Z1.0436 A-237.6815 F12.9696 
G1 X-3.7402 Y0.0000 Z1.0436 A-239.8227 F12.9696 
G1 X-3.7402 Y0.0000 Z1.0436 A-241.9640 F12.9696 
G1 X-3.7402 Y0.0000 Z1.0436 A-244.1053 F12.9696 
G1 X-3.7402 Y0.0000 Z1.0436 A-246.2466 F12.9696 
G1 X-3.7402 Y0.0000 Z1.0436 A-248.3878 F12.9696 
G1 X-3.7402 Y0.0000 Z1.0436 A-250.5291 F12.9696 
G1 X-3.7402 Y0.0000 Z1.0436 A-252.6704 F12.9696 
G1 X-3.7402 Y0.0000 Z1.0436 A-254.8116 F12.9696 
G1 X-3.7402 Y0.0000 Z1.0436 A-256.9529 F12.9696 
G1 X-3.7402 Y0.0000 Z1.0436 A-259.0942 F12.9696 
G1 X-3.7402 Y0.0000 Z1.0436 A-261.2355 F12.9696 
G1 X-3.7402 Y0.0000 Z1.0436 A-263.3767 F12.9696 
G1 X-3.7402 Y0.0000 Z1.0436 A-265.5180 F12.9696 
G1 X-3.7402 Y0.0000 Z1.0436 A-267.6593 F12.9696 
G1 X-3.7402 Y0.0000 Z1.0436 A-269.8006 F12.9696 
G1 X-3.7402 Y0.0000 Z1.0436 A-271.9418 F12.9696 
G1 X-3.7402 Y0.0000 Z1.0436 A-274.0831 F12.9696 
G1 X-3.7402 Y0.0000 Z1.0436 A-276.2244 F12.9696 
G1 X-3.7402 Y0.0000 Z1.0436 A-278.3657 F12.9696 
G1 X-3.7402 Y0.0000 Z1.0436 A-280.5069 F12.9696 
G1 X-3.7402 Y0.0000 Z1.0436 A-282.6482 F12.9696 
G1 X-3.7402 Y0.0000 Z1.0436 A-284.7895 F12.9696 
G1 X-3.7402 Y0.0000 Z1.0436 A-286.9308 F12.9696 
G1 X-3.7402 Y0.0000 Z1.0436 A-289.0720 F12.9696 
G1 X-3.7402 Y0.0000 Z1.0436 A-291.2133 F12.9696 
G1 X-3.7402 Y0.0000 Z1.0436 A-293.3546 F12.9696 
G1 X-3.7402 Y0.0000 Z1.0436 A-295.4959 F12.9696 
G1 X-3.7402 Y0.0000 Z1.0436 A-297.6371 F12.9696 
G1 X-3.7402 Y0.0000 Z1.0436 A-299.7784 F12.9696 
G1 X-3.7402 Y0.0000 Z1.0436 A-301.9197 F12.9696 
G1 X-3.7402 Y0.0000 Z1.0436 A-304.0610 F12.9696 
G1 X-3.7402 Y0.0000 Z1.0436 A-306.2022 F12.9696 
G1 X-3.7402 Y0.0000 Z1.0436 A-308.3435 F12.9696 
G1 X-3.7402 Y0.0000 Z1.0436 A-310.4848 F12.9696 
G1 X-3.7402 Y0.0000 Z1.0436 A-312.6261 F12.9696 
G1 X-3.7402 Y0.0000 Z1.0436 A-314.7673 F12.9696 
G1 X-3.7402 Y0.0000 Z1.0436 A-316.9086 F12.9696 
G1 X-3.7402 Y0.0000 Z1.0436 A-319.0499 F12.9696 
G1 X-3.7402 Y0.0000 Z1.0436 A-321.1912 F12.9696 
G1 X-3.7402 Y0.0000 Z1.0436 A-323.3324 F12.9696 
G1 X-3.7402 Y0.0000 Z1.0436 A-325.4737 F12.9696 
G1 X-3.7402 Y0.0000 Z1.0436 A-327.6150 F12.9696 
G1 X-3.7402 Y0.0000 Z1.0436 A-329.7563 F12.9696 
G1 X-3.7402 Y0.0000 Z1.0436 A-331.8975 F12.9696 
G1 X-3.7402 Y0.0000 Z1.0436 A-334.0388 F12.9696 
G1 X-3.7402 Y0.0000 Z1.0436 A-336.1801 F12.9696 
G1 X-3.7402 Y0.0000 Z1.0436 A-338.3213 F12.9696 
G1 X-3.7402 Y0.0000 Z1.0436 A-340.4626 F12.9696 
G1 X-3.7402 Y0.0000 Z1.0436 A-342.6039 F12.9696 
G1 X-3.7402 Y0.0000 Z1.0436 A-344.7452 F12.9696 
G1 X-3.7402 Y0.0000 Z1.0436 A-346.8864 F12.9696 
G1 X-3.7402 Y0.0000 Z1.0436 A-349.0277 F12.9696 
G1 X-3.7402 Y0.0000 Z1.0436 A-351.1690 F12.9696 
G1 X-3.7402 Y0.0000 Z1.0436 A-353.3103 F12.9696 
G1 X-3.7402 Y0.0000 Z1.0436 A-355.4515 F12.9696 
G1 X-3.7402 Y0.0000 Z1.0436 A-357.5928 F12.9696 
G1 X-3.7402 Y0.0000 Z1.0436 A-359.7341 F12.9696 
G1 X-3.7402 Y0.0000 Z1.0436 A-359.7341 F12.9696 
G1 Z1.2404 
G0 A0.0000 
G1 X-3.5433 Y0.0000 F12.9696 
G1 Z1.0436 F12.9696 
G1 X-3.5433 Y0.0000 Z1.0436 A0.0000 F12.9696 
G1 X-3.5433 Y0.0000 Z1.0436 A-2.1413 F12.9696 
G1 X-3.5433 Y0.0000 Z1.0436 A-4.2825 F12.9696 
G1 X-3.5433 Y0.0000 Z1.0436 A-6.4238 F12.9696 
G1 X-3.5433 Y0.0000 Z1.0436 A-8.5651 F12.9696 
G1 X-3.5433 Y0.0000 Z1.0436 A-10.7064 F12.9696 
G1 X-3.5433 Y0.0000 Z1.0436 A-12.8476 F12.9696 
G1 X-3.5433 Y0.0000 Z1.0436 A-14.9889 F12.9696 
G1 X-3.5433 Y0.0000 Z1.0436 A-17.1302 F12.9696 
G1 X-3.5433 Y0.0000 Z1.0436 A-19.2715 F12.9696 
G1 X-3.5433 Y0.0000 Z1.0436 A-21.4127 F12.9696 
G1 X-3.5433 Y0.0000 Z1.0436 A-23.5540 F12.9696 
G1 X-3.5433 Y0.0000 Z1.0436 A-25.6953 F12.9696 
G1 X-3.5433 Y0.0000 Z1.0436 A-27.8366 F12.9696 
G1 X-3.5433 Y0.0000 Z1.0436 A-29.9778 F12.9696 
G1 X-3.5433 Y0.0000 Z1.0436 A-32.1191 F12.9696 
G1 X-3.5433 Y0.0000 Z1.0436 A-34.2604 F12.9696 
G1 X-3.5433 Y0.0000 Z1.0436 A-36.4017 F12.9696 
G1 X-3.5433 Y0.0000 Z1.0436 A-38.5429 F12.9696 
G1 X-3.5433 Y0.0000 Z1.0436 A-40.6842 F12.9696 
G1 X-3.5433 Y0.0000 Z1.0436 A-42.8255 F12.9696 
G1 X-3.5433 Y0.0000 Z1.0436 A-44.9668 F12.9696 
G1 X-3.5433 Y0.0000 Z1.0436 A-47.1080 F12.9696 
G1 X-3.5433 Y0.0000 Z1.0436 A-49.2493 F12.9696 
G1 X-3.5433 Y0.0000 Z1.0436 A-51.3906 F12.9696 
G1 X-3.5433 Y0.0000 Z1.0436 A-53.5319 F12.9696 
G1 X-3.5433 Y0.0000 Z1.0436 A-55.6731 F12.9696 
G1 X-3.5433 Y0.0000 Z1.0436 A-57.8144 F12.9696 
G1 X-3.5433 Y0.0000 Z1.0436 A-59.9557 F12.9696 
G1 X-3.5433 Y0.0000 Z1.0436 A-62.0970 F12.9696 
G1 X-3.5433 Y0.0000 Z1.0436 A-64.2382 F12.9696 
G1 X-3.5433 Y0.0000 Z1.0436 A-66.3795 F12.9696 
G1 X-3.5433 Y0.0000 Z1.0436 A-68.5208 F12.9696 
G1 X-3.5433 Y0.0000 Z1.0436 A-70.6621 F12.9696 
G1 X-3.5433 Y0.0000 Z1.0436 A-72.8033 F12.9696 
G1 X-3.5433 Y0.0000 Z1.0436 A-74.9446 F12.9696 
G1 X-3.5433 Y0.0000 Z1.0436 A-77.0859 F12.9696 
G1 X-3.5433 Y0.0000 Z1.0436 A-79.2272 F12.9696 
G1 X-3.5433 Y0.0000 Z1.0436 A-81.3684 F12.9696 
G1 X-3.5433 Y0.0000 Z1.0436 A-83.5097 F12.9696 
G1 X-3.5433 Y0.0000 Z1.0436 A-85.6510 F12.9696 
G1 X-3.5433 Y0.0000 Z1.0436 A-87.7922 F12.9696 
G1 X-3.5433 Y0.0000 Z1.0436 A-89.9335 F12.9696 
G1 X-3.5433 Y0.0000 Z1.0436 A-92.0748 F12.9696 
G1 X-3.5433 Y0.0000 Z1.0436 A-94.2161 F12.9696 
G1 X-3.5433 Y0.0000 Z1.0436 A-96.3573 F12.9696 
G1 X-3.5433 Y0.0000 Z1.0436 A-98.4986 F12.9696 
G1 X-3.5433 Y0.0000 Z1.0436 A-100.6399 F12.9696 
G1 X-3.5433 Y0.0000 Z1.0436 A-102.7812 F12.9696 
G1 X-3.5433 Y0.0000 Z1.0436 A-104.9224 F12.9696 
G1 X-3.5433 Y0.0000 Z1.0436 A-107.0637 F12.9696 
G1 X-3.5433 Y0.0000 Z1.0436 A-109.2050 F12.9696 
G1 X-3.5433 Y0.0000 Z1.0436 A-111.3463 F12.9696 
G1 X-3.5433 Y0.0000 Z1.0436 A-113.4875 F12.9696 
G1 X-3.5433 Y0.0000 Z1.0436 A-115.6288 F12.9696 
G1 X-3.5433 Y0.0000 Z1.0436 A-117.7701 F12.9696 
G1 X-3.5433 Y0.0000 Z1.0436 A-119.9114 F12.9696 
G1 X-3.5433 Y0.0000 Z1.0436 A-122.0526 F12.9696 
G1 X-3.5433 Y0.0000 Z1.0436 A-124.1939 F12.9696 
G1 X-3.5433 Y0.0000 Z1.0436 A-126.3352 F12.9696 
G1 X-3.5433 Y0.0000 Z1.0436 A-128.4765 F12.9696 
G1 X-3.5433 Y0.0000 Z1.0436 A-130.6177 F12.9696 
G1 X-3.5433 Y0.0000 Z1.0436 A-132.7590 F12.9696 
G1 X-3.5433 Y0.0000 Z1.0436 A-134.9003 F12.9696 
G1 X-3.5433 Y0.0000 Z1.0436 A-137.0416 F12.9696 
G1 X-3.5433 Y0.0000 Z1.0436 A-139.1828 F12.9696 
G1 X-3.5433 Y0.0000 Z1.0436 A-141.3241 F12.9696 
G1 X-3.5433 Y0.0000 Z1.0436 A-143.4654 F12.9696 
G1 X-3.5433 Y0.0000 Z1.0436 A-145.6067 F12.9696 
G1 X-3.5433 Y0.0000 Z1.0436 A-147.7479 F12.9696 
G1 X-3.5433 Y0.0000 Z1.0436 A-149.8892 F12.9696 
G1 X-3.5433 Y0.0000 Z1.0436 A-152.0305 F12.9696 
G1 X-3.5433 Y0.0000 Z1.0436 A-154.1718 F12.9696 
G1 X-3.5433 Y0.0000 Z1.0436 A-156.3130 F12.9696 
G1 X-3.5433 Y0.0000 Z1.0436 A-158.4543 F12.9696 
G1 X-3.5433 Y0.0000 Z1.0436 A-160.5956 F12.9696 
G1 X-3.5433 Y0.0000 Z1.0436 A-162.7369 F12.9696 
G1 X-3.5433 Y0.0000 Z1.0436 A-164.8781 F12.9696 
G1 X-3.5433 Y0.0000 Z1.0436 A-167.0194 F12.9696 
G1 X-3.5433 Y0.0000 Z1.0436 A-169.1607 F12.9696 
G1 X-3.5433 Y0.0000 Z1.0436 A-171.3019 F12.9696 
G1 X-3.5433 Y0.0000 Z1.0436 A-173.4432 F12.9696 
G1 X-3.5433 Y0.0000 Z1.0436 A-175.5845 F12.9696 
G1 X-3.5433 Y0.0000 Z1.0436 A-177.7258 F12.9696 
G1 X-3.5433 Y0.0000 Z1.0436 A-179.8670 F12.9696 
G1 X-3.5433 Y0.0000 Z1.0436 A-182.0083 F12.9696 
G1 X-3.5433 Y0.0000 Z1.0436 A-184.1496 F12.9696 
G1 X-3.5433 Y0.0000 Z1.0436 A-186.2909 F12.9696 
G1 X-3.5433 Y0.0000 Z1.0436 A-188.4321 F12.9696 
G1 X-3.5433 Y0.0000 Z1.0436 A-190.5734 F12.9696 
G1 X-3.5433 Y0.0000 Z1.0436 A-192.7147 F12.9696 
G1 X-3.5433 Y0.0000 Z1.0436 A-194.8560 F12.9696 
G1 X-3.5433 Y0.0000 Z1.0436 A-196.9972 F12.9696 
G1 X-3.5433 Y0.0000 Z1.0436 A-199.1385 F12.9696 
G1 X-3.5433 Y0.0000 Z1.0436 A-201.2798 F12.9696 
G1 X-3.5433 Y0.0000 Z1.0436 A-203.4211 F12.9696 
G1 X-3.5433 Y0.0000 Z1.0436 A-205.5623 F12.9696 
G1 X-3.5433 Y0.0000 Z1.0436 A-207.7036 F12.9696 
G1 X-3.5433 Y0.0000 Z1.0436 A-209.8449 F12.9696 
G1 X-3.5433 Y0.0000 Z1.0436 A-211.9862 F12.9696 
G1 X-3.5433 Y0.0000 Z1.0436 A-214.1274 F12.9696 
G1 X-3.5433 Y0.0000 Z1.0436 A-216.2687 F12.9696 
G1 X-3.5433 Y0.0000 Z1.0436 A-218.4100 F12.9696 
G1 X-3.5433 Y0.0000 Z1.0436 A-220.5513 F12.9696 
G1 X-3.5433 Y0.0000 Z1.0436 A-222.6925 F12.9696 
G1 X-3.5433 Y0.0000 Z1.0436 A-224.8338 F12.9696 
G1 X-3.5433 Y0.0000 Z1.0436 A-226.9751 F12.9696 
G1 X-3.5433 Y0.0000 Z1.0436 A-229.1164 F12.9696 
G1 X-3.5433 Y0.0000 Z1.0436 A-231.2576 F12.9696 
G1 X-3.5433 Y0.0000 Z1.0436 A-233.3989 F12.9696 
G1 X-3.5433 Y0.0000 Z1.0436 A-235.5402 F12.9696 
G1 X-3.5433 Y0.0000 Z1.0436 A-237.6815 F12.9696 
G1 X-3.5433 Y0.0000 Z1.0436 A-239.8227 F12.9696 
G1 X-3.5433 Y0.0000 Z1.0436 A-241.9640 F12.9696 
G1 X-3.5433 Y0.0000 Z1.0436 A-244.1053 F12.9696 
G1 X-3.5433 Y0.0000 Z1.0436 A-246.2466 F12.9696 
G1 X-3.5433 Y0.0000 Z1.0436 A-248.3878 F12.9696 
G1 X-3.5433 Y0.0000 Z1.0436 A-250.5291 F12.9696 
G1 X-3.5433 Y0.0000 Z1.0436 A-252.6704 F12.9696 
G1 X-3.5433 Y0.0000 Z1.0436 A-254.8116 F12.9696 
G1 X-3.5433 Y0.0000 Z1.0436 A-256.9529 F12.9696 
G1 X-3.5433 Y0.0000 Z1.0436 A-259.0942 F12.9696 
G1 X-3.5433 Y0.0000 Z1.0436 A-261.2355 F12.9696 
G1 X-3.5433 Y0.0000 Z1.0436 A-263.3767 F12.9696 
G1 X-3.5433 Y0.0000 Z1.0436 A-265.5180 F12.9696 
G1 X-3.5433 Y0.0000 Z1.0436 A-267.6593 F12.9696 
G1 X-3.5433 Y0.0000 Z1.0436 A-269.8006 F12.9696 
G1 X-3.5433 Y0.0000 Z1.0436 A-271.9418 F12.9696 
G1 X-3.5433 Y0.0000 Z1.0436 A-274.0831 F12.9696 
G1 X-3.5433 Y0.0000 Z1.0436 A-276.2244 F12.9696 
G1 X-3.5433 Y0.0000 Z1.0436 A-278.3657 F12.9696 
G1 X-3.5433 Y0.0000 Z1.0436 A-280.5069 F12.9696 
G1 X-3.5433 Y0.0000 Z1.0436 A-282.6482 F12.9696 
G1 X-3.5433 Y0.0000 Z1.0436 A-284.7895 F12.9696 
G1 X-3.5433 Y0.0000 Z1.0436 A-286.9308 F12.9696 
G1 X-3.5433 Y0.0000 Z1.0436 A-289.0720 F12.9696 
G1 X-3.5433 Y0.0000 Z1.0436 A-291.2133 F12.9696 
G1 X-3.5433 Y0.0000 Z1.0436 A-293.3546 F12.9696 
G1 X-3.5433 Y0.0000 Z1.0436 A-295.4959 F12.9696 
G1 X-3.5433 Y0.0000 Z1.0436 A-297.6371 F12.9696 
G1 X-3.5433 Y0.0000 Z1.0436 A-299.7784 F12.9696 
G1 X-3.5433 Y0.0000 Z1.0436 A-301.9197 F12.9696 
G1 X-3.5433 Y0.0000 Z1.0436 A-304.0610 F12.9696 
G1 X-3.5433 Y0.0000 Z1.0436 A-306.2022 F12.9696 
G1 X-3.5433 Y0.0000 Z1.0436 A-308.3435 F12.9696 
G1 X-3.5433 Y0.0000 Z1.0436 A-310.4848 F12.9696 
G1 X-3.5433 Y0.0000 Z1.0436 A-312.6261 F12.9696 
G1 X-3.5433 Y0.0000 Z1.0436 A-314.7673 F12.9696 
G1 X-3.5433 Y0.0000 Z1.0436 A-316.9086 F12.9696 
G1 X-3.5433 Y0.0000 Z1.0436 A-319.0499 F12.9696 
G1 X-3.5433 Y0.0000 Z1.0436 A-321.1912 F12.9696 
G1 X-3.5433 Y0.0000 Z1.0436 A-323.3324 F12.9696 
G1 X-3.5433 Y0.0000 Z1.0436 A-325.4737 F12.9696 
G1 X-3.5433 Y0.0000 Z1.0436 A-327.6150 F12.9696 
G1 X-3.5433 Y0.0000 Z1.0436 A-329.7563 F12.9696 
G1 X-3.5433 Y0.0000 Z1.0436 A-331.8975 F12.9696 
G1 X-3.5433 Y0.0000 Z1.0436 A-334.0388 F12.9696 
G1 X-3.5433 Y0.0000 Z1.0436 A-336.1801 F12.9696 
G1 X-3.5433 Y0.0000 Z1.0436 A-338.3213 F12.9696 
G1 X-3.5433 Y0.0000 Z1.0436 A-340.4626 F12.9696 
G1 X-3.5433 Y0.0000 Z1.0436 A-342.6039 F12.9696 
G1 X-3.5433 Y0.0000 Z1.0436 A-344.7452 F12.9696 
G1 X-3.5433 Y0.0000 Z1.0436 A-346.8864 F12.9696 
G1 X-3.5433 Y0.0000 Z1.0436 A-349.0277 F12.9696 
G1 X-3.5433 Y0.0000 Z1.0436 A-351.1690 F12.9696 
G1 X-3.5433 Y0.0000 Z1.0436 A-353.3103 F12.9696 
G1 X-3.5433 Y0.0000 Z1.0436 A-355.4515 F12.9696 
G1 X-3.5433 Y0.0000 Z1.0436 A-357.5928 F12.9696 
G1 X-3.5433 Y0.0000 Z1.0436 A-359.7341 F12.9696 
G1 X-3.5433 Y0.0000 Z1.0436 A-359.7341 F12.9696 
G1 Z1.2404 
G0 A0.0000 
G1 X-3.3465 Y0.0000 F12.9696 
G1 Z1.0436 F12.9696 
G1 X-3.3465 Y0.0000 Z1.0436 A0.0000 F12.9696 
G1 X-3.3465 Y0.0000 Z1.0436 A-2.1413 F12.9696 
G1 X-3.3465 Y0.0000 Z1.0436 A-4.2825 F12.9696 
G1 X-3.3465 Y0.0000 Z1.0436 A-6.4238 F12.9696 
G1 X-3.3465 Y0.0000 Z1.0436 A-8.5651 F12.9696 
G1 X-3.3465 Y0.0000 Z1.0436 A-10.7064 F12.9696 
G1 X-3.3465 Y0.0000 Z1.0436 A-12.8476 F12.9696 
G1 X-3.3465 Y0.0000 Z1.0436 A-14.9889 F12.9696 
G1 X-3.3465 Y0.0000 Z1.0436 A-17.1302 F12.9696 
G1 X-3.3465 Y0.0000 Z1.0436 A-19.2715 F12.9696 
G1 X-3.3465 Y0.0000 Z1.0436 A-21.4127 F12.9696 
G1 X-3.3465 Y0.0000 Z1.0436 A-23.5540 F12.9696 
G1 X-3.3465 Y0.0000 Z1.0436 A-25.6953 F12.9696 
G1 X-3.3465 Y0.0000 Z1.0436 A-27.8366 F12.9696 
G1 X-3.3465 Y0.0000 Z1.0436 A-29.9778 F12.9696 
G1 X-3.3465 Y0.0000 Z1.0436 A-32.1191 F12.9696 
G1 X-3.3465 Y0.0000 Z1.0436 A-34.2604 F12.9696 
G1 X-3.3465 Y0.0000 Z1.0436 A-36.4017 F12.9696 
G1 X-3.3465 Y0.0000 Z1.0436 A-38.5429 F12.9696 
G1 X-3.3465 Y0.0000 Z1.0436 A-40.6842 F12.9696 
G1 X-3.3465 Y0.0000 Z1.0436 A-42.8255 F12.9696 
G1 X-3.3465 Y0.0000 Z1.0436 A-44.9668 F12.9696 
G1 X-3.3465 Y0.0000 Z1.0436 A-47.1080 F12.9696 
G1 X-3.3465 Y0.0000 Z1.0436 A-49.2493 F12.9696 
G1 X-3.3465 Y0.0000 Z1.0436 A-51.3906 F12.9696 
G1 X-3.3465 Y0.0000 Z1.0436 A-53.5319 F12.9696 
G1 X-3.3465 Y0.0000 Z1.0436 A-55.6731 F12.9696 
G1 X-3.3465 Y0.0000 Z1.0436 A-57.8144 F12.9696 
G1 X-3.3465 Y0.0000 Z1.0436 A-59.9557 F12.9696 
G1 X-3.3465 Y0.0000 Z1.0436 A-62.0970 F12.9696 
G1 X-3.3465 Y0.0000 Z1.0436 A-64.2382 F12.9696 
G1 X-3.3465 Y0.0000 Z1.0436 A-66.3795 F12.9696 
G1 X-3.3465 Y0.0000 Z1.0436 A-68.5208 F12.9696 
G1 X-3.3465 Y0.0000 Z1.0436 A-70.6621 F12.9696 
G1 X-3.3465 Y0.0000 Z1.0436 A-72.8033 F12.9696 
G1 X-3.3465 Y0.0000 Z1.0436 A-74.9446 F12.9696 
G1 X-3.3465 Y0.0000 Z1.0436 A-77.0859 F12.9696 
G1 X-3.3465 Y0.0000 Z1.0436 A-79.2272 F12.9696 
G1 X-3.3465 Y0.0000 Z1.0436 A-81.3684 F12.9696 
G1 X-3.3465 Y0.0000 Z1.0436 A-83.5097 F12.9696 
G1 X-3.3465 Y0.0000 Z1.0436 A-85.6510 F12.9696 
G1 X-3.3465 Y0.0000 Z1.0436 A-87.7922 F12.9696 
G1 X-3.3465 Y0.0000 Z1.0436 A-89.9335 F12.9696 
G1 X-3.3465 Y0.0000 Z1.0436 A-92.0748 F12.9696 
G1 X-3.3465 Y0.0000 Z1.0436 A-94.2161 F12.9696 
G1 X-3.3465 Y0.0000 Z1.0436 A-96.3573 F12.9696 
G1 X-3.3465 Y0.0000 Z1.0436 A-98.4986 F12.9696 
G1 X-3.3465 Y0.0000 Z1.0436 A-100.6399 F12.9696 
G1 X-3.3465 Y0.0000 Z1.0436 A-102.7812 F12.9696 
G1 X-3.3465 Y0.0000 Z1.0436 A-104.9224 F12.9696 
G1 X-3.3465 Y0.0000 Z1.0436 A-107.0637 F12.9696 
G1 X-3.3465 Y0.0000 Z1.0436 A-109.2050 F12.9696 
G1 X-3.3465 Y0.0000 Z1.0436 A-111.3463 F12.9696 
G1 X-3.3465 Y0.0000 Z1.0436 A-113.4875 F12.9696 
G1 X-3.3465 Y0.0000 Z1.0436 A-115.6288 F12.9696 
G1 X-3.3465 Y0.0000 Z1.0436 A-117.7701 F12.9696 
G1 X-3.3465 Y0.0000 Z1.0436 A-119.9114 F12.9696 
G1 X-3.3465 Y0.0000 Z1.0436 A-122.0526 F12.9696 
G1 X-3.3465 Y0.0000 Z1.0436 A-124.1939 F12.9696 
G1 X-3.3465 Y0.0000 Z1.0436 A-126.3352 F12.9696 
G1 X-3.3465 Y0.0000 Z1.0436 A-128.4765 F12.9696 
G1 X-3.3465 Y0.0000 Z1.0436 A-130.6177 F12.9696 
G1 X-3.3465 Y0.0000 Z1.0436 A-132.7590 F12.9696 
G1 X-3.3465 Y0.0000 Z1.0436 A-134.9003 F12.9696 
G1 X-3.3465 Y0.0000 Z1.0436 A-137.0416 F12.9696 
G1 X-3.3465 Y0.0000 Z1.0436 A-139.1828 F12.9696 
G1 X-3.3465 Y0.0000 Z1.0436 A-141.3241 F12.9696 
G1 X-3.3465 Y0.0000 Z1.0436 A-143.4654 F12.9696 
G1 X-3.3465 Y0.0000 Z1.0436 A-145.6067 F12.9696 
G1 X-3.3465 Y0.0000 Z1.0436 A-147.7479 F12.9696 
G1 X-3.3465 Y0.0000 Z1.0436 A-149.8892 F12.9696 
G1 X-3.3465 Y0.0000 Z1.0436 A-152.0305 F12.9696 
G1 X-3.3465 Y0.0000 Z1.0436 A-154.1718 F12.9696 
G1 X-3.3465 Y0.0000 Z1.0436 A-156.3130 F12.9696 
G1 X-3.3465 Y0.0000 Z1.0436 A-158.4543 F12.9696 
G1 X-3.3465 Y0.0000 Z1.0436 A-160.5956 F12.9696 
G1 X-3.3465 Y0.0000 Z1.0436 A-162.7369 F12.9696 
G1 X-3.3465 Y0.0000 Z1.0436 A-164.8781 F12.9696 
G1 X-3.3465 Y0.0000 Z1.0436 A-167.0194 F12.9696 
G1 X-3.3465 Y0.0000 Z1.0436 A-169.1607 F12.9696 
G1 X-3.3465 Y0.0000 Z1.0436 A-171.3019 F12.9696 
G1 X-3.3465 Y0.0000 Z1.0436 A-173.4432 F12.9696 
G1 X-3.3465 Y0.0000 Z1.0436 A-175.5845 F12.9696 
G1 X-3.3465 Y0.0000 Z1.0436 A-177.7258 F12.9696 
G1 X-3.3465 Y0.0000 Z1.0436 A-179.8670 F12.9696 
G1 X-3.3465 Y0.0000 Z1.0436 A-182.0083 F12.9696 
G1 X-3.3465 Y0.0000 Z1.0436 A-184.1496 F12.9696 
G1 X-3.3465 Y0.0000 Z1.0436 A-186.2909 F12.9696 
G1 X-3.3465 Y0.0000 Z1.0436 A-188.4321 F12.9696 
G1 X-3.3465 Y0.0000 Z1.0436 A-190.5734 F12.9696 
G1 X-3.3465 Y0.0000 Z1.0436 A-192.7147 F12.9696 
G1 X-3.3465 Y0.0000 Z1.0436 A-194.8560 F12.9696 
G1 X-3.3465 Y0.0000 Z1.0436 A-196.9972 F12.9696 
G1 X-3.3465 Y0.0000 Z1.0436 A-199.1385 F12.9696 
G1 X-3.3465 Y0.0000 Z1.0436 A-201.2798 F12.9696 
G1 X-3.3465 Y0.0000 Z1.0436 A-203.4211 F12.9696 
G1 X-3.3465 Y0.0000 Z1.0436 A-205.5623 F12.9696 
G1 X-3.3465 Y0.0000 Z1.0436 A-207.7036 F12.9696 
G1 X-3.3465 Y0.0000 Z1.0436 A-209.8449 F12.9696 
G1 X-3.3465 Y0.0000 Z1.0436 A-211.9862 F12.9696 
G1 X-3.3465 Y0.0000 Z1.0436 A-214.1274 F12.9696 
G1 X-3.3465 Y0.0000 Z1.0436 A-216.2687 F12.9696 
G1 X-3.3465 Y0.0000 Z1.0436 A-218.4100 F12.9696 
G1 X-3.3465 Y0.0000 Z1.0436 A-220.5513 F12.9696 
G1 X-3.3465 Y0.0000 Z1.0436 A-222.6925 F12.9696 
G1 X-3.3465 Y0.0000 Z1.0436 A-224.8338 F12.9696 
G1 X-3.3465 Y0.0000 Z1.0436 A-226.9751 F12.9696 
G1 X-3.3465 Y0.0000 Z1.0436 A-229.1164 F12.9696 
G1 X-3.3465 Y0.0000 Z1.0436 A-231.2576 F12.9696 
G1 X-3.3465 Y0.0000 Z1.0436 A-233.3989 F12.9696 
G1 X-3.3465 Y0.0000 Z1.0436 A-235.5402 F12.9696 
G1 X-3.3465 Y0.0000 Z1.0436 A-237.6815 F12.9696 
G1 X-3.3465 Y0.0000 Z1.0436 A-239.8227 F12.9696 
G1 X-3.3465 Y0.0000 Z1.0436 A-241.9640 F12.9696 
G1 X-3.3465 Y0.0000 Z1.0436 A-244.1053 F12.9696 
G1 X-3.3465 Y0.0000 Z1.0436 A-246.2466 F12.9696 
G1 X-3.3465 Y0.0000 Z1.0436 A-248.3878 F12.9696 
G1 X-3.3465 Y0.0000 Z1.0436 A-250.5291 F12.9696 
G1 X-3.3465 Y0.0000 Z1.0436 A-252.6704 F12.9696 
G1 X-3.3465 Y0.0000 Z1.0436 A-254.8116 F12.9696 
G1 X-3.3465 Y0.0000 Z1.0436 A-256.9529 F12.9696 
G1 X-3.3465 Y0.0000 Z1.0436 A-259.0942 F12.9696 
G1 X-3.3465 Y0.0000 Z1.0436 A-261.2355 F12.9696 
G1 X-3.3465 Y0.0000 Z1.0436 A-263.3767 F12.9696 
G1 X-3.3465 Y0.0000 Z1.0436 A-265.5180 F12.9696 
G1 X-3.3465 Y0.0000 Z1.0436 A-267.6593 F12.9696 
G1 X-3.3465 Y0.0000 Z1.0436 A-269.8006 F12.9696 
G1 X-3.3465 Y0.0000 Z1.0436 A-271.9418 F12.9696 
G1 X-3.3465 Y0.0000 Z1.0436 A-274.0831 F12.9696 
G1 X-3.3465 Y0.0000 Z1.0436 A-276.2244 F12.9696 
G1 X-3.3465 Y0.0000 Z1.0436 A-278.3657 F12.9696 
G1 X-3.3465 Y0.0000 Z1.0436 A-280.5069 F12.9696 
G1 X-3.3465 Y0.0000 Z1.0436 A-282.6482 F12.9696 
G1 X-3.3465 Y0.0000 Z1.0436 A-284.7895 F12.9696 
G1 X-3.3465 Y0.0000 Z1.0436 A-286.9308 F12.9696 
G1 X-3.3465 Y0.0000 Z1.0436 A-289.0720 F12.9696 
G1 X-3.3465 Y0.0000 Z1.0436 A-291.2133 F12.9696 
G1 X-3.3465 Y0.0000 Z1.0436 A-293.3546 F12.9696 
G1 X-3.3465 Y0.0000 Z1.0436 A-295.4959 F12.9696 
G1 X-3.3465 Y0.0000 Z1.0436 A-297.6371 F12.9696 
G1 X-3.3465 Y0.0000 Z1.0436 A-299.7784 F12.9696 
G1 X-3.3465 Y0.0000 Z1.0436 A-301.9197 F12.9696 
G1 X-3.3465 Y0.0000 Z1.0436 A-304.0610 F12.9696 
G1 X-3.3465 Y0.0000 Z1.0436 A-306.2022 F12.9696 
G1 X-3.3465 Y0.0000 Z1.0436 A-308.3435 F12.9696 
G1 X-3.3465 Y0.0000 Z1.0436 A-310.4848 F12.9696 
G1 X-3.3465 Y0.0000 Z1.0436 A-312.6261 F12.9696 
G1 X-3.3465 Y0.0000 Z1.0436 A-314.7673 F12.9696 
G1 X-3.3465 Y0.0000 Z1.0436 A-316.9086 F12.9696 
G1 X-3.3465 Y0.0000 Z1.0436 A-319.0499 F12.9696 
G1 X-3.3465 Y0.0000 Z1.0436 A-321.1912 F12.9696 
G1 X-3.3465 Y0.0000 Z1.0436 A-323.3324 F12.9696 
G1 X-3.3465 Y0.0000 Z1.0436 A-325.4737 F12.9696 
G1 X-3.3465 Y0.0000 Z1.0436 A-327.6150 F12.9696 
G1 X-3.3465 Y0.0000 Z1.0436 A-329.7563 F12.9696 
G1 X-3.3465 Y0.0000 Z1.0436 A-331.8975 F12.9696 
G1 X-3.3465 Y0.0000 Z1.0436 A-334.0388 F12.9696 
G1 X-3.3465 Y0.0000 Z1.0436 A-336.1801 F12.9696 
G1 X-3.3465 Y0.0000 Z1.0436 A-338.3213 F12.9696 
G1 X-3.3465 Y0.0000 Z1.0436 A-340.4626 F12.9696 
G1 X-3.3465 Y0.0000 Z1.0436 A-342.6039 F12.9696 
G1 X-3.3465 Y0.0000 Z1.0436 A-344.7452 F12.9696 
G1 X-3.3465 Y0.0000 Z1.0436 A-346.8864 F12.9696 
G1 X-3.3465 Y0.0000 Z1.0436 A-349.0277 F12.9696 
G1 X-3.3465 Y0.0000 Z1.0436 A-351.1690 F12.9696 
G1 X-3.3465 Y0.0000 Z1.0436 A-353.3103 F12.9696 
G1 X-3.3465 Y0.0000 Z1.0436 A-355.4515 F12.9696 
G1 X-3.3465 Y0.0000 Z1.0436 A-357.5928 F12.9696 
G1 X-3.3465 Y0.0000 Z1.0436 A-359.7341 F12.9696 
G1 X-3.3465 Y0.0000 Z1.0436 A-359.7341 F12.9696 
G1 Z1.2404 
G0 A0.0000 
G1 X-3.1496 Y0.0000 F12.9696 
G1 Z1.0436 F12.9696 
G1 X-3.1496 Y0.0000 Z1.0436 A0.0000 F12.9696 
G1 X-3.1496 Y0.0000 Z1.0436 A-2.1413 F12.9696 
G1 X-3.1496 Y0.0000 Z1.0436 A-4.2825 F12.9696 
G1 X-3.1496 Y0.0000 Z1.0436 A-6.4238 F12.9696 
G1 X-3.1496 Y0.0000 Z1.0436 A-8.5651 F12.9696 
G1 X-3.1496 Y0.0000 Z1.0436 A-10.7064 F12.9696 
G1 X-3.1496 Y0.0000 Z1.0436 A-12.8476 F12.9696 
G1 X-3.1496 Y0.0000 Z1.0436 A-14.9889 F12.9696 
G1 X-3.1496 Y0.0000 Z1.0436 A-17.1302 F12.9696 
G1 X-3.1496 Y0.0000 Z1.0436 A-19.2715 F12.9696 
G1 X-3.1496 Y0.0000 Z1.0436 A-21.4127 F12.9696 
G1 X-3.1496 Y0.0000 Z1.0436 A-23.5540 F12.9696 
G1 X-3.1496 Y0.0000 Z1.0436 A-25.6953 F12.9696 
G1 X-3.1496 Y0.0000 Z1.0436 A-27.8366 F12.9696 
G1 X-3.1496 Y0.0000 Z1.0436 A-29.9778 F12.9696 
G1 X-3.1496 Y0.0000 Z1.0436 A-32.1191 F12.9696 
G1 X-3.1496 Y0.0000 Z1.0436 A-34.2604 F12.9696 
G1 X-3.1496 Y0.0000 Z1.0436 A-36.4017 F12.9696 
G1 X-3.1496 Y0.0000 Z1.0436 A-38.5429 F12.9696 
G1 X-3.1496 Y0.0000 Z1.0436 A-40.6842 F12.9696 
G1 X-3.1496 Y0.0000 Z1.0436 A-42.8255 F12.9696 
G1 X-3.1496 Y0.0000 Z1.0436 A-44.9668 F12.9696 
G1 X-3.1496 Y0.0000 Z1.0436 A-47.1080 F12.9696 
G1 X-3.1496 Y0.0000 Z1.0436 A-49.2493 F12.9696 
G1 X-3.1496 Y0.0000 Z1.0436 A-51.3906 F12.9696 
G1 X-3.1496 Y0.0000 Z1.0436 A-53.5319 F12.9696 
G1 X-3.1496 Y0.0000 Z1.0436 A-55.6731 F12.9696 
G1 X-3.1496 Y0.0000 Z1.0436 A-57.8144 F12.9696 
G1 X-3.1496 Y0.0000 Z1.0436 A-59.9557 F12.9696 
G1 X-3.1496 Y0.0000 Z1.0436 A-62.0970 F12.9696 
G1 X-3.1496 Y0.0000 Z1.0436 A-64.2382 F12.9696 
G1 X-3.1496 Y0.0000 Z1.0436 A-66.3795 F12.9696 
G1 X-3.1496 Y0.0000 Z1.0436 A-68.5208 F12.9696 
G1 X-3.1496 Y0.0000 Z1.0436 A-70.6621 F12.9696 
G1 X-3.1496 Y0.0000 Z1.0436 A-72.8033 F12.9696 
G1 X-3.1496 Y0.0000 Z1.0436 A-74.9446 F12.9696 
G1 X-3.1496 Y0.0000 Z1.0436 A-77.0859 F12.9696 
G1 X-3.1496 Y0.0000 Z1.0436 A-79.2272 F12.9696 
G1 X-3.1496 Y0.0000 Z1.0436 A-81.3684 F12.9696 
G1 X-3.1496 Y0.0000 Z1.0436 A-83.5097 F12.9696 
G1 X-3.1496 Y0.0000 Z1.0436 A-85.6510 F12.9696 
G1 X-3.1496 Y0.0000 Z1.0436 A-87.7922 F12.9696 
G1 X-3.1496 Y0.0000 Z1.0436 A-89.9335 F12.9696 
G1 X-3.1496 Y0.0000 Z1.0436 A-92.0748 F12.9696 
G1 X-3.1496 Y0.0000 Z1.0436 A-94.2161 F12.9696 
G1 X-3.1496 Y0.0000 Z1.0436 A-96.3573 F12.9696 
G1 X-3.1496 Y0.0000 Z1.0436 A-98.4986 F12.9696 
G1 X-3.1496 Y0.0000 Z1.0436 A-100.6399 F12.9696 
G1 X-3.1496 Y0.0000 Z1.0436 A-102.7812 F12.9696 
G1 X-3.1496 Y0.0000 Z1.0436 A-104.9224 F12.9696 
G1 X-3.1496 Y0.0000 Z1.0436 A-107.0637 F12.9696 
G1 X-3.1496 Y0.0000 Z1.0436 A-109.2050 F12.9696 
G1 X-3.1496 Y0.0000 Z1.0436 A-111.3463 F12.9696 
G1 X-3.1496 Y0.0000 Z1.0436 A-113.4875 F12.9696 
G1 X-3.1496 Y0.0000 Z1.0436 A-115.6288 F12.9696 
G1 X-3.1496 Y0.0000 Z1.0436 A-117.7701 F12.9696 
G1 X-3.1496 Y0.0000 Z1.0436 A-119.9114 F12.9696 
G1 X-3.1496 Y0.0000 Z1.0436 A-122.0526 F12.9696 
G1 X-3.1496 Y0.0000 Z1.0436 A-124.1939 F12.9696 
G1 X-3.1496 Y0.0000 Z1.0436 A-126.3352 F12.9696 
G1 X-3.1496 Y0.0000 Z1.0436 A-128.4765 F12.9696 
G1 X-3.1496 Y0.0000 Z1.0436 A-130.6177 F12.9696 
G1 X-3.1496 Y0.0000 Z1.0436 A-132.7590 F12.9696 
G1 X-3.1496 Y0.0000 Z1.0436 A-134.9003 F12.9696 
G1 X-3.1496 Y0.0000 Z1.0436 A-137.0416 F12.9696 
G1 X-3.1496 Y0.0000 Z1.0436 A-139.1828 F12.9696 
G1 X-3.1496 Y0.0000 Z1.0436 A-141.3241 F12.9696 
G1 X-3.1496 Y0.0000 Z1.0436 A-143.4654 F12.9696 
G1 X-3.1496 Y0.0000 Z1.0436 A-145.6067 F12.9696 
G1 X-3.1496 Y0.0000 Z1.0436 A-147.7479 F12.9696 
G1 X-3.1496 Y0.0000 Z1.0436 A-149.8892 F12.9696 
G1 X-3.1496 Y0.0000 Z1.0436 A-152.0305 F12.9696 
G1 X-3.1496 Y0.0000 Z1.0436 A-154.1718 F12.9696 
G1 X-3.1496 Y0.0000 Z1.0436 A-156.3130 F12.9696 
G1 X-3.1496 Y0.0000 Z1.0436 A-158.4543 F12.9696 
G1 X-3.1496 Y0.0000 Z1.0436 A-160.5956 F12.9696 
G1 X-3.1496 Y0.0000 Z1.0436 A-162.7369 F12.9696 
G1 X-3.1496 Y0.0000 Z1.0436 A-164.8781 F12.9696 
G1 X-3.1496 Y0.0000 Z1.0436 A-167.0194 F12.9696 
G1 X-3.1496 Y0.0000 Z1.0436 A-169.1607 F12.9696 
G1 X-3.1496 Y0.0000 Z1.0436 A-171.3019 F12.9696 
G1 X-3.1496 Y0.0000 Z1.0436 A-173.4432 F12.9696 
G1 X-3.1496 Y0.0000 Z1.0436 A-175.5845 F12.9696 
G1 X-3.1496 Y0.0000 Z1.0436 A-177.7258 F12.9696 
G1 X-3.1496 Y0.0000 Z1.0436 A-179.8670 F12.9696 
G1 X-3.1496 Y0.0000 Z1.0436 A-182.0083 F12.9696 
G1 X-3.1496 Y0.0000 Z1.0436 A-184.1496 F12.9696 
G1 X-3.1496 Y0.0000 Z1.0436 A-186.2909 F12.9696 
G1 X-3.1496 Y0.0000 Z1.0436 A-188.4321 F12.9696 
G1 X-3.1496 Y0.0000 Z1.0436 A-190.5734 F12.9696 
G1 X-3.1496 Y0.0000 Z1.0436 A-192.7147 F12.9696 
G1 X-3.1496 Y0.0000 Z1.0436 A-194.8560 F12.9696 
G1 X-3.1496 Y0.0000 Z1.0436 A-196.9972 F12.9696 
G1 X-3.1496 Y0.0000 Z1.0436 A-199.1385 F12.9696 
G1 X-3.1496 Y0.0000 Z1.0436 A-201.2798 F12.9696 
G1 X-3.1496 Y0.0000 Z1.0436 A-203.4211 F12.9696 
G1 X-3.1496 Y0.0000 Z1.0436 A-205.5623 F12.9696 
G1 X-3.1496 Y0.0000 Z1.0436 A-207.7036 F12.9696 
G1 X-3.1496 Y0.0000 Z1.0436 A-209.8449 F12.9696 
G1 X-3.1496 Y0.0000 Z1.0436 A-211.9862 F12.9696 
G1 X-3.1496 Y0.0000 Z1.0436 A-214.1274 F12.9696 
G1 X-3.1496 Y0.0000 Z1.0436 A-216.2687 F12.9696 
G1 X-3.1496 Y0.0000 Z1.0436 A-218.4100 F12.9696 
G1 X-3.1496 Y0.0000 Z1.0436 A-220.5513 F12.9696 
G1 X-3.1496 Y0.0000 Z1.0436 A-222.6925 F12.9696 
G1 X-3.1496 Y0.0000 Z1.0436 A-224.8338 F12.9696 
G1 X-3.1496 Y0.0000 Z1.0436 A-226.9751 F12.9696 
G1 X-3.1496 Y0.0000 Z1.0436 A-229.1164 F12.9696 
G1 X-3.1496 Y0.0000 Z1.0436 A-231.2576 F12.9696 
G1 X-3.1496 Y0.0000 Z1.0436 A-233.3989 F12.9696 
G1 X-3.1496 Y0.0000 Z1.0436 A-235.5402 F12.9696 
G1 X-3.1496 Y0.0000 Z1.0436 A-237.6815 F12.9696 
G1 X-3.1496 Y0.0000 Z1.0436 A-239.8227 F12.9696 
G1 X-3.1496 Y0.0000 Z1.0436 A-241.9640 F12.9696 
G1 X-3.1496 Y0.0000 Z1.0436 A-244.1053 F12.9696 
G1 X-3.1496 Y0.0000 Z1.0436 A-246.2466 F12.9696 
G1 X-3.1496 Y0.0000 Z1.0436 A-248.3878 F12.9696 
G1 X-3.1496 Y0.0000 Z1.0436 A-250.5291 F12.9696 
G1 X-3.1496 Y0.0000 Z1.0436 A-252.6704 F12.9696 
G1 X-3.1496 Y0.0000 Z1.0436 A-254.8116 F12.9696 
G1 X-3.1496 Y0.0000 Z1.0436 A-256.9529 F12.9696 
G1 X-3.1496 Y0.0000 Z1.0436 A-259.0942 F12.9696 
G1 X-3.1496 Y0.0000 Z1.0436 A-261.2355 F12.9696 
G1 X-3.1496 Y0.0000 Z1.0436 A-263.3767 F12.9696 
G1 X-3.1496 Y0.0000 Z1.0436 A-265.5180 F12.9696 
G1 X-3.1496 Y0.0000 Z1.0436 A-267.6593 F12.9696 
G1 X-3.1496 Y0.0000 Z1.0436 A-269.8006 F12.9696 
G1 X-3.1496 Y0.0000 Z1.0436 A-271.9418 F12.9696 
G1 X-3.1496 Y0.0000 Z1.0436 A-274.0831 F12.9696 
G1 X-3.1496 Y0.0000 Z1.0436 A-276.2244 F12.9696 
G1 X-3.1496 Y0.0000 Z1.0436 A-278.3657 F12.9696 
G1 X-3.1496 Y0.0000 Z1.0436 A-280.5069 F12.9696 
G1 X-3.1496 Y0.0000 Z1.0436 A-282.6482 F12.9696 
G1 X-3.1496 Y0.0000 Z1.0436 A-284.7895 F12.9696 
G1 X-3.1496 Y0.0000 Z1.0436 A-286.9308 F12.9696 
G1 X-3.1496 Y0.0000 Z1.0436 A-289.0720 F12.9696 
G1 X-3.1496 Y0.0000 Z1.0436 A-291.2133 F12.9696 
G1 X-3.1496 Y0.0000 Z1.0436 A-293.3546 F12.9696 
G1 X-3.1496 Y0.0000 Z1.0436 A-295.4959 F12.9696 
G1 X-3.1496 Y0.0000 Z1.0436 A-297.6371 F12.9696 
G1 X-3.1496 Y0.0000 Z1.0436 A-299.7784 F12.9696 
G1 X-3.1496 Y0.0000 Z1.0436 A-301.9197 F12.9696 
G1 X-3.1496 Y0.0000 Z1.0436 A-304.0610 F12.9696 
G1 X-3.1496 Y0.0000 Z1.0436 A-306.2022 F12.9696 
G1 X-3.1496 Y0.0000 Z1.0436 A-308.3435 F12.9696 
G1 X-3.1496 Y0.0000 Z1.0436 A-310.4848 F12.9696 
G1 X-3.1496 Y0.0000 Z1.0436 A-312.6261 F12.9696 
G1 X-3.1496 Y0.0000 Z1.0436 A-314.7673 F12.9696 
G1 X-3.1496 Y0.0000 Z1.0436 A-316.9086 F12.9696 
G1 X-3.1496 Y0.0000 Z1.0436 A-319.0499 F12.9696 
G1 X-3.1496 Y0.0000 Z1.0436 A-321.1912 F12.9696 
G1 X-3.1496 Y0.0000 Z1.0436 A-323.3324 F12.9696 
G1 X-3.1496 Y0.0000 Z1.0436 A-325.4737 F12.9696 
G1 X-3.1496 Y0.0000 Z1.0436 A-327.6150 F12.9696 
G1 X-3.1496 Y0.0000 Z1.0436 A-329.7563 F12.9696 
G1 X-3.1496 Y0.0000 Z1.0436 A-331.8975 F12.9696 
G1 X-3.1496 Y0.0000 Z1.0436 A-334.0388 F12.9696 
G1 X-3.1496 Y0.0000 Z1.0436 A-336.1801 F12.9696 
G1 X-3.1496 Y0.0000 Z1.0436 A-338.3213 F12.9696 
G1 X-3.1496 Y0.0000 Z1.0436 A-340.4626 F12.9696 
G1 X-3.1496 Y0.0000 Z1.0436 A-342.6039 F12.9696 
G1 X-3.1496 Y0.0000 Z1.0436 A-344.7452 F12.9696 
G1 X-3.1496 Y0.0000 Z1.0436 A-346.8864 F12.9696 
G1 X-3.1496 Y0.0000 Z1.0436 A-349.0277 F12.9696 
G1 X-3.1496 Y0.0000 Z1.0436 A-351.1690 F12.9696 
G1 X-3.1496 Y0.0000 Z1.0436 A-353.3103 F12.9696 
G1 X-3.1496 Y0.0000 Z1.0436 A-355.4515 F12.9696 
G1 X-3.1496 Y0.0000 Z1.0436 A-357.5928 F12.9696 
G1 X-3.1496 Y0.0000 Z1.0436 A-359.7341 F12.9696 
G1 X-3.1496 Y0.0000 Z1.0436 A-359.7341 F12.9696 
G1 Z1.2404 
G0 A0.0000 
G1 X-2.9528 Y0.0000 F12.9696 
G1 Z1.0436 F12.9696 
G1 X-2.9528 Y0.0000 Z1.0436 A0.0000 F12.9696 
G1 X-2.9528 Y0.0000 Z1.0436 A-2.1413 F12.9696 
G1 X-2.9528 Y0.0000 Z1.0436 A-4.2825 F12.9696 
G1 X-2.9528 Y0.0000 Z1.0436 A-6.4238 F12.9696 
G1 X-2.9528 Y0.0000 Z1.0436 A-8.5651 F12.9696 
G1 X-2.9528 Y0.0000 Z1.0436 A-10.7064 F12.9696 
G1 X-2.9528 Y0.0000 Z1.0436 A-12.8476 F12.9696 
G1 X-2.9528 Y0.0000 Z1.0436 A-14.9889 F12.9696 
G1 X-2.9528 Y0.0000 Z1.0436 A-17.1302 F12.9696 
G1 X-2.9528 Y0.0000 Z1.0436 A-19.2715 F12.9696 
G1 X-2.9528 Y0.0000 Z1.0436 A-21.4127 F12.9696 
G1 X-2.9528 Y0.0000 Z1.0436 A-23.5540 F12.9696 
G1 X-2.9528 Y0.0000 Z1.0436 A-25.6953 F12.9696 
G1 X-2.9528 Y0.0000 Z1.0436 A-27.8366 F12.9696 
G1 X-2.9528 Y0.0000 Z1.0436 A-29.9778 F12.9696 
G1 X-2.9528 Y0.0000 Z1.0436 A-32.1191 F12.9696 
G1 X-2.9528 Y0.0000 Z1.0436 A-34.2604 F12.9696 
G1 X-2.9528 Y0.0000 Z1.0436 A-36.4017 F12.9696 
G1 X-2.9528 Y0.0000 Z1.0436 A-38.5429 F12.9696 
G1 X-2.9528 Y0.0000 Z1.0436 A-40.6842 F12.9696 
G1 X-2.9528 Y0.0000 Z1.0436 A-42.8255 F12.9696 
G1 X-2.9528 Y0.0000 Z1.0436 A-44.9668 F12.9696 
G1 X-2.9528 Y0.0000 Z1.0436 A-47.1080 F12.9696 
G1 X-2.9528 Y0.0000 Z1.0436 A-49.2493 F12.9696 
G1 X-2.9528 Y0.0000 Z1.0436 A-51.3906 F12.9696 
G1 X-2.9528 Y0.0000 Z1.0436 A-53.5319 F12.9696 
G1 X-2.9528 Y0.0000 Z1.0436 A-55.6731 F12.9696 
G1 X-2.9528 Y0.0000 Z1.0436 A-57.8144 F12.9696 
G1 X-2.9528 Y0.0000 Z1.0436 A-59.9557 F12.9696 
G1 X-2.9528 Y0.0000 Z1.0436 A-62.0970 F12.9696 
G1 X-2.9528 Y0.0000 Z1.0436 A-64.2382 F12.9696 
G1 X-2.9528 Y0.0000 Z1.0436 A-66.3795 F12.9696 
G1 X-2.9528 Y0.0000 Z1.0436 A-68.5208 F12.9696 
G1 X-2.9528 Y0.0000 Z1.0436 A-70.6621 F12.9696 
G1 X-2.9528 Y0.0000 Z1.0436 A-72.8033 F12.9696 
G1 X-2.9528 Y0.0000 Z1.0436 A-74.9446 F12.9696 
G1 X-2.9528 Y0.0000 Z1.0436 A-77.0859 F12.9696 
G1 X-2.9528 Y0.0000 Z1.0436 A-79.2272 F12.9696 
G1 X-2.9528 Y0.0000 Z1.0436 A-81.3684 F12.9696 
G1 X-2.9528 Y0.0000 Z1.0436 A-83.5097 F12.9696 
G1 X-2.9528 Y0.0000 Z1.0436 A-85.6510 F12.9696 
G1 X-2.9528 Y0.0000 Z1.0436 A-87.7922 F12.9696 
G1 X-2.9528 Y0.0000 Z1.0436 A-89.9335 F12.9696 
G1 X-2.9528 Y0.0000 Z1.0436 A-92.0748 F12.9696 
G1 X-2.9528 Y0.0000 Z1.0436 A-94.2161 F12.9696 
G1 X-2.9528 Y0.0000 Z1.0436 A-96.3573 F12.9696 
G1 X-2.9528 Y0.0000 Z1.0436 A-98.4986 F12.9696 
G1 X-2.9528 Y0.0000 Z1.0436 A-100.6399 F12.9696 
G1 X-2.9528 Y0.0000 Z1.0436 A-102.7812 F12.9696 
G1 X-2.9528 Y0.0000 Z1.0436 A-104.9224 F12.9696 
G1 X-2.9528 Y0.0000 Z1.0436 A-107.0637 F12.9696 
G1 X-2.9528 Y0.0000 Z1.0436 A-109.2050 F12.9696 
G1 X-2.9528 Y0.0000 Z1.0436 A-111.3463 F12.9696 
G1 X-2.9528 Y0.0000 Z1.0436 A-113.4875 F12.9696 
G1 X-2.9528 Y0.0000 Z1.0436 A-115.6288 F12.9696 
G1 X-2.9528 Y0.0000 Z1.0436 A-117.7701 F12.9696 
G1 X-2.9528 Y0.0000 Z1.0436 A-119.9114 F12.9696 
G1 X-2.9528 Y0.0000 Z1.0436 A-122.0526 F12.9696 
G1 X-2.9528 Y0.0000 Z1.0436 A-124.1939 F12.9696 
G1 X-2.9528 Y0.0000 Z1.0436 A-126.3352 F12.9696 
G1 X-2.9528 Y0.0000 Z1.0436 A-128.4765 F12.9696 
G1 X-2.9528 Y0.0000 Z1.0436 A-130.6177 F12.9696 
G1 X-2.9528 Y0.0000 Z1.0436 A-132.7590 F12.9696 
G1 X-2.9528 Y0.0000 Z1.0436 A-134.9003 F12.9696 
G1 X-2.9528 Y0.0000 Z1.0436 A-137.0416 F12.9696 
G1 X-2.9528 Y0.0000 Z1.0436 A-139.1828 F12.9696 
G1 X-2.9528 Y0.0000 Z1.0436 A-141.3241 F12.9696 
G1 X-2.9528 Y0.0000 Z1.0436 A-143.4654 F12.9696 
G1 X-2.9528 Y0.0000 Z1.0436 A-145.6067 F12.9696 
G1 X-2.9528 Y0.0000 Z1.0436 A-147.7479 F12.9696 
G1 X-2.9528 Y0.0000 Z1.0436 A-149.8892 F12.9696 
G1 X-2.9528 Y0.0000 Z1.0436 A-152.0305 F12.9696 
G1 X-2.9528 Y0.0000 Z1.0436 A-154.1718 F12.9696 
G1 X-2.9528 Y0.0000 Z1.0436 A-156.3130 F12.9696 
G1 X-2.9528 Y0.0000 Z1.0436 A-158.4543 F12.9696 
G1 X-2.9528 Y0.0000 Z1.0436 A-160.5956 F12.9696 
G1 X-2.9528 Y0.0000 Z1.0436 A-162.7369 F12.9696 
G1 X-2.9528 Y0.0000 Z1.0436 A-164.8781 F12.9696 
G1 X-2.9528 Y0.0000 Z1.0436 A-167.0194 F12.9696 
G1 X-2.9528 Y0.0000 Z1.0436 A-169.1607 F12.9696 
G1 X-2.9528 Y0.0000 Z1.0436 A-171.3019 F12.9696 
G1 X-2.9528 Y0.0000 Z1.0436 A-173.4432 F12.9696 
G1 X-2.9528 Y0.0000 Z1.0436 A-175.5845 F12.9696 
G1 X-2.9528 Y0.0000 Z1.0436 A-177.7258 F12.9696 
G1 X-2.9528 Y0.0000 Z1.0436 A-179.8670 F12.9696 
G1 X-2.9528 Y0.0000 Z1.0436 A-182.0083 F12.9696 
G1 X-2.9528 Y0.0000 Z1.0436 A-184.1496 F12.9696 
G1 X-2.9528 Y0.0000 Z1.0436 A-186.2909 F12.9696 
G1 X-2.9528 Y0.0000 Z1.0436 A-188.4321 F12.9696 
G1 X-2.9528 Y0.0000 Z1.0436 A-190.5734 F12.9696 
G1 X-2.9528 Y0.0000 Z1.0436 A-192.7147 F12.9696 
G1 X-2.9528 Y0.0000 Z1.0436 A-194.8560 F12.9696 
G1 X-2.9528 Y0.0000 Z1.0436 A-196.9972 F12.9696 
G1 X-2.9528 Y0.0000 Z1.0436 A-199.1385 F12.9696 
G1 X-2.9528 Y0.0000 Z1.0436 A-201.2798 F12.9696 
G1 X-2.9528 Y0.0000 Z1.0436 A-203.4211 F12.9696 
G1 X-2.9528 Y0.0000 Z1.0436 A-205.5623 F12.9696 
G1 X-2.9528 Y0.0000 Z1.0436 A-207.7036 F12.9696 
G1 X-2.9528 Y0.0000 Z1.0436 A-209.8449 F12.9696 
G1 X-2.9528 Y0.0000 Z1.0436 A-211.9862 F12.9696 
G1 X-2.9528 Y0.0000 Z1.0436 A-214.1274 F12.9696 
G1 X-2.9528 Y0.0000 Z1.0436 A-216.2687 F12.9696 
G1 X-2.9528 Y0.0000 Z1.0436 A-218.4100 F12.9696 
G1 X-2.9528 Y0.0000 Z1.0436 A-220.5513 F12.9696 
G1 X-2.9528 Y0.0000 Z1.0436 A-222.6925 F12.9696 
G1 X-2.9528 Y0.0000 Z1.0436 A-224.8338 F12.9696 
G1 X-2.9528 Y0.0000 Z1.0436 A-226.9751 F12.9696 
G1 X-2.9528 Y0.0000 Z1.0436 A-229.1164 F12.9696 
G1 X-2.9528 Y0.0000 Z1.0436 A-231.2576 F12.9696 
G1 X-2.9528 Y0.0000 Z1.0436 A-233.3989 F12.9696 
G1 X-2.9528 Y0.0000 Z1.0436 A-235.5402 F12.9696 
G1 X-2.9528 Y0.0000 Z1.0436 A-237.6815 F12.9696 
G1 X-2.9528 Y0.0000 Z1.0436 A-239.8227 F12.9696 
G1 X-2.9528 Y0.0000 Z1.0436 A-241.9640 F12.9696 
G1 X-2.9528 Y0.0000 Z1.0436 A-244.1053 F12.9696 
G1 X-2.9528 Y0.0000 Z1.0436 A-246.2466 F12.9696 
G1 X-2.9528 Y0.0000 Z1.0436 A-248.3878 F12.9696 
G1 X-2.9528 Y0.0000 Z1.0436 A-250.5291 F12.9696 
G1 X-2.9528 Y0.0000 Z1.0436 A-252.6704 F12.9696 
G1 X-2.9528 Y0.0000 Z1.0436 A-254.8116 F12.9696 
G1 X-2.9528 Y0.0000 Z1.0436 A-256.9529 F12.9696 
G1 X-2.9528 Y0.0000 Z1.0436 A-259.0942 F12.9696 
G1 X-2.9528 Y0.0000 Z1.0436 A-261.2355 F12.9696 
G1 X-2.9528 Y0.0000 Z1.0436 A-263.3767 F12.9696 
G1 X-2.9528 Y0.0000 Z1.0436 A-265.5180 F12.9696 
G1 X-2.9528 Y0.0000 Z1.0436 A-267.6593 F12.9696 
G1 X-2.9528 Y0.0000 Z1.0436 A-269.8006 F12.9696 
G1 X-2.9528 Y0.0000 Z1.0436 A-271.9418 F12.9696 
G1 X-2.9528 Y0.0000 Z1.0436 A-274.0831 F12.9696 
G1 X-2.9528 Y0.0000 Z1.0436 A-276.2244 F12.9696 
G1 X-2.9528 Y0.0000 Z1.0436 A-278.3657 F12.9696 
G1 X-2.9528 Y0.0000 Z1.0436 A-280.5069 F12.9696 
G1 X-2.9528 Y0.0000 Z1.0436 A-282.6482 F12.9696 
G1 X-2.9528 Y0.0000 Z1.0436 A-284.7895 F12.9696 
G1 X-2.9528 Y0.0000 Z1.0436 A-286.9308 F12.9696 
G1 X-2.9528 Y0.0000 Z1.0436 A-289.0720 F12.9696 
G1 X-2.9528 Y0.0000 Z1.0436 A-291.2133 F12.9696 
G1 X-2.9528 Y0.0000 Z1.0436 A-293.3546 F12.9696 
G1 X-2.9528 Y0.0000 Z1.0436 A-295.4959 F12.9696 
G1 X-2.9528 Y0.0000 Z1.0436 A-297.6371 F12.9696 
G1 X-2.9528 Y0.0000 Z1.0436 A-299.7784 F12.9696 
G1 X-2.9528 Y0.0000 Z1.0436 A-301.9197 F12.9696 
G1 X-2.9528 Y0.0000 Z1.0436 A-304.0610 F12.9696 
G1 X-2.9528 Y0.0000 Z1.0436 A-306.2022 F12.9696 
G1 X-2.9528 Y0.0000 Z1.0436 A-308.3435 F12.9696 
G1 X-2.9528 Y0.0000 Z1.0436 A-310.4848 F12.9696 
G1 X-2.9528 Y0.0000 Z1.0436 A-312.6261 F12.9696 
G1 X-2.9528 Y0.0000 Z1.0436 A-314.7673 F12.9696 
G1 X-2.9528 Y0.0000 Z1.0436 A-316.9086 F12.9696 
G1 X-2.9528 Y0.0000 Z1.0436 A-319.0499 F12.9696 
G1 X-2.9528 Y0.0000 Z1.0436 A-321.1912 F12.9696 
G1 X-2.9528 Y0.0000 Z1.0436 A-323.3324 F12.9696 
G1 X-2.9528 Y0.0000 Z1.0436 A-325.4737 F12.9696 
G1 X-2.9528 Y0.0000 Z1.0436 A-327.6150 F12.9696 
G1 X-2.9528 Y0.0000 Z1.0436 A-329.7563 F12.9696 
G1 X-2.9528 Y0.0000 Z1.0436 A-331.8975 F12.9696 
G1 X-2.9528 Y0.0000 Z1.0436 A-334.0388 F12.9696 
G1 X-2.9528 Y0.0000 Z1.0436 A-336.1801 F12.9696 
G1 X-2.9528 Y0.0000 Z1.0436 A-338.3213 F12.9696 
G1 X-2.9528 Y0.0000 Z1.0436 A-340.4626 F12.9696 
G1 X-2.9528 Y0.0000 Z1.0436 A-342.6039 F12.9696 
G1 X-2.9528 Y0.0000 Z1.0436 A-344.7452 F12.9696 
G1 X-2.9528 Y0.0000 Z1.0436 A-346.8864 F12.9696 
G1 X-2.9528 Y0.0000 Z1.0436 A-349.0277 F12.9696 
G1 X-2.9528 Y0.0000 Z1.0436 A-351.1690 F12.9696 
G1 X-2.9528 Y0.0000 Z1.0436 A-353.3103 F12.9696 
G1 X-2.9528 Y0.0000 Z1.0436 A-355.4515 F12.9696 
G1 X-2.9528 Y0.0000 Z1.0436 A-357.5928 F12.9696 
G1 X-2.9528 Y0.0000 Z1.0436 A-359.7341 F12.9696 
G1 X-2.9528 Y0.0000 Z1.0436 A-359.7341 F12.9696 
G1 Z1.2404 
G0 A0.0000 
G1 X-2.7559 Y0.0000 F12.9696 
G1 Z1.0436 F12.9696 
G1 X-2.7559 Y0.0000 Z1.0436 A0.0000 F12.9696 
G1 X-2.7559 Y0.0000 Z1.0436 A-2.1413 F12.9696 
G1 X-2.7559 Y0.0000 Z1.0436 A-4.2825 F12.9696 
G1 X-2.7559 Y0.0000 Z1.0436 A-6.4238 F12.9696 
G1 X-2.7559 Y0.0000 Z1.0436 A-8.5651 F12.9696 
G1 X-2.7559 Y0.0000 Z1.0436 A-10.7064 F12.9696 
G1 X-2.7559 Y0.0000 Z1.0436 A-12.8476 F12.9696 
G1 X-2.7559 Y0.0000 Z1.0436 A-14.9889 F12.9696 
G1 X-2.7559 Y0.0000 Z1.0436 A-17.1302 F12.9696 
G1 X-2.7559 Y0.0000 Z1.0436 A-19.2715 F12.9696 
G1 X-2.7559 Y0.0000 Z1.0436 A-21.4127 F12.9696 
G1 X-2.7559 Y0.0000 Z1.0436 A-23.5540 F12.9696 
G1 X-2.7559 Y0.0000 Z1.0436 A-25.6953 F12.9696 
G1 X-2.7559 Y0.0000 Z1.0436 A-27.8366 F12.9696 
G1 X-2.7559 Y0.0000 Z1.0436 A-29.9778 F12.9696 
G1 X-2.7559 Y0.0000 Z1.0436 A-32.1191 F12.9696 
G1 X-2.7559 Y0.0000 Z1.0436 A-34.2604 F12.9696 
G1 X-2.7559 Y0.0000 Z1.0436 A-36.4017 F12.9696 
G1 X-2.7559 Y0.0000 Z1.0436 A-38.5429 F12.9696 
G1 X-2.7559 Y0.0000 Z1.0436 A-40.6842 F12.9696 
G1 X-2.7559 Y0.0000 Z1.0436 A-42.8255 F12.9696 
G1 X-2.7559 Y0.0000 Z1.0436 A-44.9668 F12.9696 
G1 X-2.7559 Y0.0000 Z1.0436 A-47.1080 F12.9696 
G1 X-2.7559 Y0.0000 Z1.0436 A-49.2493 F12.9696 
G1 X-2.7559 Y0.0000 Z1.0436 A-51.3906 F12.9696 
G1 X-2.7559 Y0.0000 Z1.0436 A-53.5319 F12.9696 
G1 X-2.7559 Y0.0000 Z1.0436 A-55.6731 F12.9696 
G1 X-2.7559 Y0.0000 Z1.0436 A-57.8144 F12.9696 
G1 X-2.7559 Y0.0000 Z1.0436 A-59.9557 F12.9696 
G1 X-2.7559 Y0.0000 Z1.0436 A-62.0970 F12.9696 
G1 X-2.7559 Y0.0000 Z1.0436 A-64.2382 F12.9696 
G1 X-2.7559 Y0.0000 Z1.0436 A-66.3795 F12.9696 
G1 X-2.7559 Y0.0000 Z1.0436 A-68.5208 F12.9696 
G1 X-2.7559 Y0.0000 Z1.0436 A-70.6621 F12.9696 
G1 X-2.7559 Y0.0000 Z1.0436 A-72.8033 F12.9696 
G1 X-2.7559 Y0.0000 Z1.0436 A-74.9446 F12.9696 
G1 X-2.7559 Y0.0000 Z1.0436 A-77.0859 F12.9696 
G1 X-2.7559 Y0.0000 Z1.0436 A-79.2272 F12.9696 
G1 X-2.7559 Y0.0000 Z1.0436 A-81.3684 F12.9696 
G1 X-2.7559 Y0.0000 Z1.0436 A-83.5097 F12.9696 
G1 X-2.7559 Y0.0000 Z1.0436 A-85.6510 F12.9696 
G1 X-2.7559 Y0.0000 Z1.0436 A-87.7922 F12.9696 
G1 X-2.7559 Y0.0000 Z1.0436 A-89.9335 F12.9696 
G1 X-2.7559 Y0.0000 Z1.0436 A-92.0748 F12.9696 
G1 X-2.7559 Y0.0000 Z1.0436 A-94.2161 F12.9696 
G1 X-2.7559 Y0.0000 Z1.0436 A-96.3573 F12.9696 
G1 X-2.7559 Y0.0000 Z1.0436 A-98.4986 F12.9696 
G1 X-2.7559 Y0.0000 Z1.0436 A-100.6399 F12.9696 
G1 X-2.7559 Y0.0000 Z1.0436 A-102.7812 F12.9696 
G1 X-2.7559 Y0.0000 Z1.0436 A-104.9224 F12.9696 
G1 X-2.7559 Y0.0000 Z1.0436 A-107.0637 F12.9696 
G1 X-2.7559 Y0.0000 Z1.0436 A-109.2050 F12.9696 
G1 X-2.7559 Y0.0000 Z1.0436 A-111.3463 F12.9696 
G1 X-2.7559 Y0.0000 Z1.0436 A-113.4875 F12.9696 
G1 X-2.7559 Y0.0000 Z1.0436 A-115.6288 F12.9696 
G1 X-2.7559 Y0.0000 Z1.0436 A-117.7701 F12.9696 
G1 X-2.7559 Y0.0000 Z1.0436 A-119.9114 F12.9696 
G1 X-2.7559 Y0.0000 Z1.0436 A-122.0526 F12.9696 
G1 X-2.7559 Y0.0000 Z1.0436 A-124.1939 F12.9696 
G1 X-2.7559 Y0.0000 Z1.0436 A-126.3352 F12.9696 
G1 X-2.7559 Y0.0000 Z1.0436 A-128.4765 F12.9696 
G1 X-2.7559 Y0.0000 Z1.0436 A-130.6177 F12.9696 
G1 X-2.7559 Y0.0000 Z1.0436 A-132.7590 F12.9696 
G1 X-2.7559 Y0.0000 Z1.0436 A-134.9003 F12.9696 
G1 X-2.7559 Y0.0000 Z1.0436 A-137.0416 F12.9696 
G1 X-2.7559 Y0.0000 Z1.0436 A-139.1828 F12.9696 
G1 X-2.7559 Y0.0000 Z1.0436 A-141.3241 F12.9696 
G1 X-2.7559 Y0.0000 Z1.0436 A-143.4654 F12.9696 
G1 X-2.7559 Y0.0000 Z1.0436 A-145.6067 F12.9696 
G1 X-2.7559 Y0.0000 Z1.0436 A-147.7479 F12.9696 
G1 X-2.7559 Y0.0000 Z1.0436 A-149.8892 F12.9696 
G1 X-2.7559 Y0.0000 Z1.0436 A-152.0305 F12.9696 
G1 X-2.7559 Y0.0000 Z1.0436 A-154.1718 F12.9696 
G1 X-2.7559 Y0.0000 Z1.0436 A-156.3130 F12.9696 
G1 X-2.7559 Y0.0000 Z1.0436 A-158.4543 F12.9696 
G1 X-2.7559 Y0.0000 Z1.0436 A-160.5956 F12.9696 
G1 X-2.7559 Y0.0000 Z1.0436 A-162.7369 F12.9696 
G1 X-2.7559 Y0.0000 Z1.0436 A-164.8781 F12.9696 
G1 X-2.7559 Y0.0000 Z1.0436 A-167.0194 F12.9696 
G1 X-2.7559 Y0.0000 Z1.0436 A-169.1607 F12.9696 
G1 X-2.7559 Y0.0000 Z1.0436 A-171.3019 F12.9696 
G1 X-2.7559 Y0.0000 Z1.0436 A-173.4432 F12.9696 
G1 X-2.7559 Y0.0000 Z1.0436 A-175.5845 F12.9696 
G1 X-2.7559 Y0.0000 Z1.0436 A-177.7258 F12.9696 
G1 X-2.7559 Y0.0000 Z1.0436 A-179.8670 F12.9696 
G1 X-2.7559 Y0.0000 Z1.0436 A-182.0083 F12.9696 
G1 X-2.7559 Y0.0000 Z1.0436 A-184.1496 F12.9696 
G1 X-2.7559 Y0.0000 Z1.0436 A-186.2909 F12.9696 
G1 X-2.7559 Y0.0000 Z1.0436 A-188.4321 F12.9696 
G1 X-2.7559 Y0.0000 Z1.0436 A-190.5734 F12.9696 
G1 X-2.7559 Y0.0000 Z1.0436 A-192.7147 F12.9696 
G1 X-2.7559 Y0.0000 Z1.0436 A-194.8560 F12.9696 
G1 X-2.7559 Y0.0000 Z1.0436 A-196.9972 F12.9696 
G1 X-2.7559 Y0.0000 Z1.0436 A-199.1385 F12.9696 
G1 X-2.7559 Y0.0000 Z1.0436 A-201.2798 F12.9696 
G1 X-2.7559 Y0.0000 Z1.0436 A-203.4211 F12.9696 
G1 X-2.7559 Y0.0000 Z1.0436 A-205.5623 F12.9696 
G1 X-2.7559 Y0.0000 Z1.0436 A-207.7036 F12.9696 
G1 X-2.7559 Y0.0000 Z1.0436 A-209.8449 F12.9696 
G1 X-2.7559 Y0.0000 Z1.0436 A-211.9862 F12.9696 
G1 X-2.7559 Y0.0000 Z1.0436 A-214.1274 F12.9696 
G1 X-2.7559 Y0.0000 Z1.0436 A-216.2687 F12.9696 
G1 X-2.7559 Y0.0000 Z1.0436 A-218.4100 F12.9696 
G1 X-2.7559 Y0.0000 Z1.0436 A-220.5513 F12.9696 
G1 X-2.7559 Y0.0000 Z1.0436 A-222.6925 F12.9696 
G1 X-2.7559 Y0.0000 Z1.0436 A-224.8338 F12.9696 
G1 X-2.7559 Y0.0000 Z1.0436 A-226.9751 F12.9696 
G1 X-2.7559 Y0.0000 Z1.0436 A-229.1164 F12.9696 
G1 X-2.7559 Y0.0000 Z1.0436 A-231.2576 F12.9696 
G1 X-2.7559 Y0.0000 Z1.0436 A-233.3989 F12.9696 
G1 X-2.7559 Y0.0000 Z1.0436 A-235.5402 F12.9696 
G1 X-2.7559 Y0.0000 Z1.0436 A-237.6815 F12.9696 
G1 X-2.7559 Y0.0000 Z1.0436 A-239.8227 F12.9696 
G1 X-2.7559 Y0.0000 Z1.0436 A-241.9640 F12.9696 
G1 X-2.7559 Y0.0000 Z1.0436 A-244.1053 F12.9696 
G1 X-2.7559 Y0.0000 Z1.0436 A-246.2466 F12.9696 
G1 X-2.7559 Y0.0000 Z1.0436 A-248.3878 F12.9696 
G1 X-2.7559 Y0.0000 Z1.0436 A-250.5291 F12.9696 
G1 X-2.7559 Y0.0000 Z1.0436 A-252.6704 F12.9696 
G1 X-2.7559 Y0.0000 Z1.0436 A-254.8116 F12.9696 
G1 X-2.7559 Y0.0000 Z1.0436 A-256.9529 F12.9696 
G1 X-2.7559 Y0.0000 Z1.0436 A-259.0942 F12.9696 
G1 X-2.7559 Y0.0000 Z1.0436 A-261.2355 F12.9696 
G1 X-2.7559 Y0.0000 Z1.0436 A-263.3767 F12.9696 
G1 X-2.7559 Y0.0000 Z1.0436 A-265.5180 F12.9696 
G1 X-2.7559 Y0.0000 Z1.0436 A-267.6593 F12.9696 
G1 X-2.7559 Y0.0000 Z1.0436 A-269.8006 F12.9696 
G1 X-2.7559 Y0.0000 Z1.0436 A-271.9418 F12.9696 
G1 X-2.7559 Y0.0000 Z1.0436 A-274.0831 F12.9696 
G1 X-2.7559 Y0.0000 Z1.0436 A-276.2244 F12.9696 
G1 X-2.7559 Y0.0000 Z1.0436 A-278.3657 F12.9696 
G1 X-2.7559 Y0.0000 Z1.0436 A-280.5069 F12.9696 
G1 X-2.7559 Y0.0000 Z1.0436 A-282.6482 F12.9696 
G1 X-2.7559 Y0.0000 Z1.0436 A-284.7895 F12.9696 
G1 X-2.7559 Y0.0000 Z1.0436 A-286.9308 F12.9696 
G1 X-2.7559 Y0.0000 Z1.0436 A-289.0720 F12.9696 
G1 X-2.7559 Y0.0000 Z1.0436 A-291.2133 F12.9696 
G1 X-2.7559 Y0.0000 Z1.0436 A-293.3546 F12.9696 
G1 X-2.7559 Y0.0000 Z1.0436 A-295.4959 F12.9696 
G1 X-2.7559 Y0.0000 Z1.0436 A-297.6371 F12.9696 
G1 X-2.7559 Y0.0000 Z1.0436 A-299.7784 F12.9696 
G1 X-2.7559 Y0.0000 Z1.0436 A-301.9197 F12.9696 
G1 X-2.7559 Y0.0000 Z1.0436 A-304.0610 F12.9696 
G1 X-2.7559 Y0.0000 Z1.0436 A-306.2022 F12.9696 
G1 X-2.7559 Y0.0000 Z1.0436 A-308.3435 F12.9696 
G1 X-2.7559 Y0.0000 Z1.0436 A-310.4848 F12.9696 
G1 X-2.7559 Y0.0000 Z1.0436 A-312.6261 F12.9696 
G1 X-2.7559 Y0.0000 Z1.0436 A-314.7673 F12.9696 
G1 X-2.7559 Y0.0000 Z1.0436 A-316.9086 F12.9696 
G1 X-2.7559 Y0.0000 Z1.0436 A-319.0499 F12.9696 
G1 X-2.7559 Y0.0000 Z1.0436 A-321.1912 F12.9696 
G1 X-2.7559 Y0.0000 Z1.0436 A-323.3324 F12.9696 
G1 X-2.7559 Y0.0000 Z1.0436 A-325.4737 F12.9696 
G1 X-2.7559 Y0.0000 Z1.0436 A-327.6150 F12.9696 
G1 X-2.7559 Y0.0000 Z1.0436 A-329.7563 F12.9696 
G1 X-2.7559 Y0.0000 Z1.0436 A-331.8975 F12.9696 
G1 X-2.7559 Y0.0000 Z1.0436 A-334.0388 F12.9696 
G1 X-2.7559 Y0.0000 Z1.0436 A-336.1801 F12.9696 
G1 X-2.7559 Y0.0000 Z1.0436 A-338.3213 F12.9696 
G1 X-2.7559 Y0.0000 Z1.0436 A-340.4626 F12.9696 
G1 X-2.7559 Y0.0000 Z1.0436 A-342.6039 F12.9696 
G1 X-2.7559 Y0.0000 Z1.0436 A-344.7452 F12.9696 
G1 X-2.7559 Y0.0000 Z1.0436 A-346.8864 F12.9696 
G1 X-2.7559 Y0.0000 Z1.0436 A-349.0277 F12.9696 
G1 X-2.7559 Y0.0000 Z1.0436 A-351.1690 F12.9696 
G1 X-2.7559 Y0.0000 Z1.0436 A-353.3103 F12.9696 
G1 X-2.7559 Y0.0000 Z1.0436 A-355.4515 F12.9696 
G1 X-2.7559 Y0.0000 Z1.0436 A-357.5928 F12.9696 
G1 X-2.7559 Y0.0000 Z1.0436 A-359.7341 F12.9696 
G1 X-2.7559 Y0.0000 Z1.0436 A-359.7341 F12.9696 
G1 Z1.2404 
G0 A0.0000 
G1 X-2.5591 Y0.0000 F12.9696 
G1 Z1.0436 F12.9696 
G1 X-2.5591 Y0.0000 Z1.0436 A0.0000 F12.9696 
G1 X-2.5591 Y0.0000 Z1.0436 A-2.1413 F12.9696 
G1 X-2.5591 Y0.0000 Z1.0436 A-4.2825 F12.9696 
G1 X-2.5591 Y0.0000 Z1.0436 A-6.4238 F12.9696 
G1 X-2.5591 Y0.0000 Z1.0436 A-8.5651 F12.9696 
G1 X-2.5591 Y0.0000 Z1.0436 A-10.7064 F12.9696 
G1 X-2.5591 Y0.0000 Z1.0436 A-12.8476 F12.9696 
G1 X-2.5591 Y0.0000 Z1.0436 A-14.9889 F12.9696 
G1 X-2.5591 Y0.0000 Z1.0436 A-17.1302 F12.9696 
G1 X-2.5591 Y0.0000 Z1.0436 A-19.2715 F12.9696 
G1 X-2.5591 Y0.0000 Z1.0436 A-21.4127 F12.9696 
G1 X-2.5591 Y0.0000 Z1.0436 A-23.5540 F12.9696 
G1 X-2.5591 Y0.0000 Z1.0436 A-25.6953 F12.9696 
G1 X-2.5591 Y0.0000 Z1.0436 A-27.8366 F12.9696 
G1 X-2.5591 Y0.0000 Z1.0436 A-29.9778 F12.9696 
G1 X-2.5591 Y0.0000 Z1.0436 A-32.1191 F12.9696 
G1 X-2.5591 Y0.0000 Z1.0436 A-34.2604 F12.9696 
G1 X-2.5591 Y0.0000 Z1.0436 A-36.4017 F12.9696 
G1 X-2.5591 Y0.0000 Z1.0436 A-38.5429 F12.9696 
G1 X-2.5591 Y0.0000 Z1.0436 A-40.6842 F12.9696 
G1 X-2.5591 Y0.0000 Z1.0436 A-42.8255 F12.9696 
G1 X-2.5591 Y0.0000 Z1.0436 A-44.9668 F12.9696 
G1 X-2.5591 Y0.0000 Z1.0436 A-47.1080 F12.9696 
G1 X-2.5591 Y0.0000 Z1.0436 A-49.2493 F12.9696 
G1 X-2.5591 Y0.0000 Z1.0436 A-51.3906 F12.9696 
G1 X-2.5591 Y0.0000 Z1.0436 A-53.5319 F12.9696 
G1 X-2.5591 Y0.0000 Z1.0436 A-55.6731 F12.9696 
G1 X-2.5591 Y0.0000 Z1.0436 A-57.8144 F12.9696 
G1 X-2.5591 Y0.0000 Z1.0436 A-59.9557 F12.9696 
G1 X-2.5591 Y0.0000 Z1.0436 A-62.0970 F12.9696 
G1 X-2.5591 Y0.0000 Z1.0436 A-64.2382 F12.9696 
G1 X-2.5591 Y0.0000 Z1.0436 A-66.3795 F12.9696 
G1 X-2.5591 Y0.0000 Z1.0436 A-68.5208 F12.9696 
G1 X-2.5591 Y0.0000 Z1.0436 A-70.6621 F12.9696 
G1 X-2.5591 Y0.0000 Z1.0436 A-72.8033 F12.9696 
G1 X-2.5591 Y0.0000 Z1.0436 A-74.9446 F12.9696 
G1 X-2.5591 Y0.0000 Z1.0436 A-77.0859 F12.9696 
G1 X-2.5591 Y0.0000 Z1.0436 A-79.2272 F12.9696 
G1 X-2.5591 Y0.0000 Z1.0436 A-81.3684 F12.9696 
G1 X-2.5591 Y0.0000 Z1.0436 A-83.5097 F12.9696 
G1 X-2.5591 Y0.0000 Z1.0436 A-85.6510 F12.9696 
G1 X-2.5591 Y0.0000 Z1.0436 A-87.7922 F12.9696 
G1 X-2.5591 Y0.0000 Z1.0436 A-89.9335 F12.9696 
G1 X-2.5591 Y0.0000 Z1.0436 A-92.0748 F12.9696 
G1 X-2.5591 Y0.0000 Z1.0436 A-94.2161 F12.9696 
G1 X-2.5591 Y0.0000 Z1.0436 A-96.3573 F12.9696 
G1 X-2.5591 Y0.0000 Z1.0436 A-98.4986 F12.9696 
G1 X-2.5591 Y0.0000 Z1.0436 A-100.6399 F12.9696 
G1 X-2.5591 Y0.0000 Z1.0436 A-102.7812 F12.9696 
G1 X-2.5591 Y0.0000 Z1.0436 A-104.9224 F12.9696 
G1 X-2.5591 Y0.0000 Z1.0436 A-107.0637 F12.9696 
G1 X-2.5591 Y0.0000 Z1.0436 A-109.2050 F12.9696 
G1 X-2.5591 Y0.0000 Z1.0436 A-111.3463 F12.9696 
G1 X-2.5591 Y0.0000 Z1.0436 A-113.4875 F12.9696 
G1 X-2.5591 Y0.0000 Z1.0436 A-115.6288 F12.9696 
G1 X-2.5591 Y0.0000 Z1.0436 A-117.7701 F12.9696 
G1 X-2.5591 Y0.0000 Z1.0436 A-119.9114 F12.9696 
G1 X-2.5591 Y0.0000 Z1.0436 A-122.0526 F12.9696 
G1 X-2.5591 Y0.0000 Z1.0436 A-124.1939 F12.9696 
G1 X-2.5591 Y0.0000 Z1.0436 A-126.3352 F12.9696 
G1 X-2.5591 Y0.0000 Z1.0436 A-128.4765 F12.9696 
G1 X-2.5591 Y0.0000 Z1.0436 A-130.6177 F12.9696 
G1 X-2.5591 Y0.0000 Z1.0436 A-132.7590 F12.9696 
G1 X-2.5591 Y0.0000 Z1.0436 A-134.9003 F12.9696 
G1 X-2.5591 Y0.0000 Z1.0436 A-137.0416 F12.9696 
G1 X-2.5591 Y0.0000 Z1.0436 A-139.1828 F12.9696 
G1 X-2.5591 Y0.0000 Z1.0436 A-141.3241 F12.9696 
G1 X-2.5591 Y0.0000 Z1.0436 A-143.4654 F12.9696 
G1 X-2.5591 Y0.0000 Z1.0436 A-145.6067 F12.9696 
G1 X-2.5591 Y0.0000 Z1.0436 A-147.7479 F12.9696 
G1 X-2.5591 Y0.0000 Z1.0436 A-149.8892 F12.9696 
G1 X-2.5591 Y0.0000 Z1.0436 A-152.0305 F12.9696 
G1 X-2.5591 Y0.0000 Z1.0436 A-154.1718 F12.9696 
G1 X-2.5591 Y0.0000 Z1.0436 A-156.3130 F12.9696 
G1 X-2.5591 Y0.0000 Z1.0436 A-158.4543 F12.9696 
G1 X-2.5591 Y0.0000 Z1.0436 A-160.5956 F12.9696 
G1 X-2.5591 Y0.0000 Z1.0436 A-162.7369 F12.9696 
G1 X-2.5591 Y0.0000 Z1.0436 A-164.8781 F12.9696 
G1 X-2.5591 Y0.0000 Z1.0436 A-167.0194 F12.9696 
G1 X-2.5591 Y0.0000 Z1.0436 A-169.1607 F12.9696 
G1 X-2.5591 Y0.0000 Z1.0436 A-171.3019 F12.9696 
G1 X-2.5591 Y0.0000 Z1.0436 A-173.4432 F12.9696 
G1 X-2.5591 Y0.0000 Z1.0436 A-175.5845 F12.9696 
G1 X-2.5591 Y0.0000 Z1.0436 A-177.7258 F12.9696 
G1 X-2.5591 Y0.0000 Z1.0436 A-179.8670 F12.9696 
G1 X-2.5591 Y0.0000 Z1.0436 A-182.0083 F12.9696 
G1 X-2.5591 Y0.0000 Z1.0436 A-184.1496 F12.9696 
G1 X-2.5591 Y0.0000 Z1.0436 A-186.2909 F12.9696 
G1 X-2.5591 Y0.0000 Z1.0436 A-188.4321 F12.9696 
G1 X-2.5591 Y0.0000 Z1.0436 A-190.5734 F12.9696 
G1 X-2.5591 Y0.0000 Z1.0436 A-192.7147 F12.9696 
G1 X-2.5591 Y0.0000 Z1.0436 A-194.8560 F12.9696 
G1 X-2.5591 Y0.0000 Z1.0436 A-196.9972 F12.9696 
G1 X-2.5591 Y0.0000 Z1.0436 A-199.1385 F12.9696 
G1 X-2.5591 Y0.0000 Z1.0436 A-201.2798 F12.9696 
G1 X-2.5591 Y0.0000 Z1.0436 A-203.4211 F12.9696 
G1 X-2.5591 Y0.0000 Z1.0436 A-205.5623 F12.9696 
G1 X-2.5591 Y0.0000 Z1.0436 A-207.7036 F12.9696 
G1 X-2.5591 Y0.0000 Z1.0436 A-209.8449 F12.9696 
G1 X-2.5591 Y0.0000 Z1.0436 A-211.9862 F12.9696 
G1 X-2.5591 Y0.0000 Z1.0436 A-214.1274 F12.9696 
G1 X-2.5591 Y0.0000 Z1.0436 A-216.2687 F12.9696 
G1 X-2.5591 Y0.0000 Z1.0436 A-218.4100 F12.9696 
G1 X-2.5591 Y0.0000 Z1.0436 A-220.5513 F12.9696 
G1 X-2.5591 Y0.0000 Z1.0436 A-222.6925 F12.9696 
G1 X-2.5591 Y0.0000 Z1.0436 A-224.8338 F12.9696 
G1 X-2.5591 Y0.0000 Z1.0436 A-226.9751 F12.9696 
G1 X-2.5591 Y0.0000 Z1.0436 A-229.1164 F12.9696 
G1 X-2.5591 Y0.0000 Z1.0436 A-231.2576 F12.9696 
G1 X-2.5591 Y0.0000 Z1.0436 A-233.3989 F12.9696 
G1 X-2.5591 Y0.0000 Z1.0436 A-235.5402 F12.9696 
G1 X-2.5591 Y0.0000 Z1.0436 A-237.6815 F12.9696 
G1 X-2.5591 Y0.0000 Z1.0436 A-239.8227 F12.9696 
G1 X-2.5591 Y0.0000 Z1.0436 A-241.9640 F12.9696 
G1 X-2.5591 Y0.0000 Z1.0436 A-244.1053 F12.9696 
G1 X-2.5591 Y0.0000 Z1.0436 A-246.2466 F12.9696 
G1 X-2.5591 Y0.0000 Z1.0436 A-248.3878 F12.9696 
G1 X-2.5591 Y0.0000 Z1.0436 A-250.5291 F12.9696 
G1 X-2.5591 Y0.0000 Z1.0436 A-252.6704 F12.9696 
G1 X-2.5591 Y0.0000 Z1.0436 A-254.8116 F12.9696 
G1 X-2.5591 Y0.0000 Z1.0436 A-256.9529 F12.9696 
G1 X-2.5591 Y0.0000 Z1.0436 A-259.0942 F12.9696 
G1 X-2.5591 Y0.0000 Z1.0436 A-261.2355 F12.9696 
G1 X-2.5591 Y0.0000 Z1.0436 A-263.3767 F12.9696 
G1 X-2.5591 Y0.0000 Z1.0436 A-265.5180 F12.9696 
G1 X-2.5591 Y0.0000 Z1.0436 A-267.6593 F12.9696 
G1 X-2.5591 Y0.0000 Z1.0436 A-269.8006 F12.9696 
G1 X-2.5591 Y0.0000 Z1.0436 A-271.9418 F12.9696 
G1 X-2.5591 Y0.0000 Z1.0436 A-274.0831 F12.9696 
G1 X-2.5591 Y0.0000 Z1.0436 A-276.2244 F12.9696 
G1 X-2.5591 Y0.0000 Z1.0436 A-278.3657 F12.9696 
G1 X-2.5591 Y0.0000 Z1.0436 A-280.5069 F12.9696 
G1 X-2.5591 Y0.0000 Z1.0436 A-282.6482 F12.9696 
G1 X-2.5591 Y0.0000 Z1.0436 A-284.7895 F12.9696 
G1 X-2.5591 Y0.0000 Z1.0436 A-286.9308 F12.9696 
G1 X-2.5591 Y0.0000 Z1.0436 A-289.0720 F12.9696 
G1 X-2.5591 Y0.0000 Z1.0436 A-291.2133 F12.9696 
G1 X-2.5591 Y0.0000 Z1.0436 A-293.3546 F12.9696 
G1 X-2.5591 Y0.0000 Z1.0436 A-295.4959 F12.9696 
G1 X-2.5591 Y0.0000 Z1.0436 A-297.6371 F12.9696 
G1 X-2.5591 Y0.0000 Z1.0436 A-299.7784 F12.9696 
G1 X-2.5591 Y0.0000 Z1.0436 A-301.9197 F12.9696 
G1 X-2.5591 Y0.0000 Z1.0436 A-304.0610 F12.9696 
G1 X-2.5591 Y0.0000 Z1.0436 A-306.2022 F12.9696 
G1 X-2.5591 Y0.0000 Z1.0436 A-308.3435 F12.9696 
G1 X-2.5591 Y0.0000 Z1.0436 A-310.4848 F12.9696 
G1 X-2.5591 Y0.0000 Z1.0436 A-312.6261 F12.9696 
G1 X-2.5591 Y0.0000 Z1.0436 A-314.7673 F12.9696 
G1 X-2.5591 Y0.0000 Z1.0436 A-316.9086 F12.9696 
G1 X-2.5591 Y0.0000 Z1.0436 A-319.0499 F12.9696 
G1 X-2.5591 Y0.0000 Z1.0436 A-321.1912 F12.9696 
G1 X-2.5591 Y0.0000 Z1.0436 A-323.3324 F12.9696 
G1 X-2.5591 Y0.0000 Z1.0436 A-325.4737 F12.9696 
G1 X-2.5591 Y0.0000 Z1.0436 A-327.6150 F12.9696 
G1 X-2.5591 Y0.0000 Z1.0436 A-329.7563 F12.9696 
G1 X-2.5591 Y0.0000 Z1.0436 A-331.8975 F12.9696 
G1 X-2.5591 Y0.0000 Z1.0436 A-334.0388 F12.9696 
G1 X-2.5591 Y0.0000 Z1.0436 A-336.1801 F12.9696 
G1 X-2.5591 Y0.0000 Z1.0436 A-338.3213 F12.9696 
G1 X-2.5591 Y0.0000 Z1.0436 A-340.4626 F12.9696 
G1 X-2.5591 Y0.0000 Z1.0436 A-342.6039 F12.9696 
G1 X-2.5591 Y0.0000 Z1.0436 A-344.7452 F12.9696 
G1 X-2.5591 Y0.0000 Z1.0436 A-346.8864 F12.9696 
G1 X-2.5591 Y0.0000 Z1.0436 A-349.0277 F12.9696 
G1 X-2.5591 Y0.0000 Z1.0436 A-351.1690 F12.9696 
G1 X-2.5591 Y0.0000 Z1.0436 A-353.3103 F12.9696 
G1 X-2.5591 Y0.0000 Z1.0436 A-355.4515 F12.9696 
G1 X-2.5591 Y0.0000 Z1.0436 A-357.5928 F12.9696 
G1 X-2.5591 Y0.0000 Z1.0436 A-359.7341 F12.9696 
G1 X-2.5591 Y0.0000 Z1.0436 A-359.7341 F12.9696 
G1 Z1.2404 
G0 A0.0000 
G1 X-2.3622 Y0.0000 F12.9696 
G1 Z1.0436 F12.9696 
G1 X-2.3622 Y0.0000 Z1.0436 A0.0000 F12.9696 
G1 X-2.3622 Y0.0000 Z1.0436 A-2.1413 F12.9696 
G1 X-2.3622 Y0.0000 Z1.0436 A-4.2825 F12.9696 
G1 X-2.3622 Y0.0000 Z1.0436 A-6.4238 F12.9696 
G1 X-2.3622 Y0.0000 Z1.0436 A-8.5651 F12.9696 
G1 X-2.3622 Y0.0000 Z1.0436 A-10.7064 F12.9696 
G1 X-2.3622 Y0.0000 Z1.0436 A-12.8476 F12.9696 
G1 X-2.3622 Y0.0000 Z1.0436 A-14.9889 F12.9696 
G1 X-2.3622 Y0.0000 Z1.0436 A-17.1302 F12.9696 
G1 X-2.3622 Y0.0000 Z1.0436 A-19.2715 F12.9696 
G1 X-2.3622 Y0.0000 Z1.0436 A-21.4127 F12.9696 
G1 X-2.3622 Y0.0000 Z1.0436 A-23.5540 F12.9696 
G1 X-2.3622 Y0.0000 Z1.0436 A-25.6953 F12.9696 
G1 X-2.3622 Y0.0000 Z1.0436 A-27.8366 F12.9696 
G1 X-2.3622 Y0.0000 Z1.0436 A-29.9778 F12.9696 
G1 X-2.3622 Y0.0000 Z1.0436 A-32.1191 F12.9696 
G1 X-2.3622 Y0.0000 Z1.0436 A-34.2604 F12.9696 
G1 X-2.3622 Y0.0000 Z1.0436 A-36.4017 F12.9696 
G1 X-2.3622 Y0.0000 Z1.0436 A-38.5429 F12.9696 
G1 X-2.3622 Y0.0000 Z1.0436 A-40.6842 F12.9696 
G1 X-2.3622 Y0.0000 Z1.0436 A-42.8255 F12.9696 
G1 X-2.3622 Y0.0000 Z1.0436 A-44.9668 F12.9696 
G1 X-2.3622 Y0.0000 Z1.0436 A-47.1080 F12.9696 
G1 X-2.3622 Y0.0000 Z1.0436 A-49.2493 F12.9696 
G1 X-2.3622 Y0.0000 Z1.0436 A-51.3906 F12.9696 
G1 X-2.3622 Y0.0000 Z1.0436 A-53.5319 F12.9696 
G1 X-2.3622 Y0.0000 Z1.0436 A-55.6731 F12.9696 
G1 X-2.3622 Y0.0000 Z1.0436 A-57.8144 F12.9696 
G1 X-2.3622 Y0.0000 Z1.0436 A-59.9557 F12.9696 
G1 X-2.3622 Y0.0000 Z1.0436 A-62.0970 F12.9696 
G1 X-2.3622 Y0.0000 Z1.0436 A-64.2382 F12.9696 
G1 X-2.3622 Y0.0000 Z1.0436 A-66.3795 F12.9696 
G1 X-2.3622 Y0.0000 Z1.0436 A-68.5208 F12.9696 
G1 X-2.3622 Y0.0000 Z1.0436 A-70.6621 F12.9696 
G1 X-2.3622 Y0.0000 Z1.0436 A-72.8033 F12.9696 
G1 X-2.3622 Y0.0000 Z1.0436 A-74.9446 F12.9696 
G1 X-2.3622 Y0.0000 Z1.0436 A-77.0859 F12.9696 
G1 X-2.3622 Y0.0000 Z1.0436 A-79.2272 F12.9696 
G1 X-2.3622 Y0.0000 Z1.0436 A-81.3684 F12.9696 
G1 X-2.3622 Y0.0000 Z1.0436 A-83.5097 F12.9696 
G1 X-2.3622 Y0.0000 Z1.0436 A-85.6510 F12.9696 
G1 X-2.3622 Y0.0000 Z1.0436 A-87.7922 F12.9696 
G1 X-2.3622 Y0.0000 Z1.0436 A-89.9335 F12.9696 
G1 X-2.3622 Y0.0000 Z1.0436 A-92.0748 F12.9696 
G1 X-2.3622 Y0.0000 Z1.0436 A-94.2161 F12.9696 
G1 X-2.3622 Y0.0000 Z1.0436 A-96.3573 F12.9696 
G1 X-2.3622 Y0.0000 Z1.0436 A-98.4986 F12.9696 
G1 X-2.3622 Y0.0000 Z1.0436 A-100.6399 F12.9696 
G1 X-2.3622 Y0.0000 Z1.0436 A-102.7812 F12.9696 
G1 X-2.3622 Y0.0000 Z1.0436 A-104.9224 F12.9696 
G1 X-2.3622 Y0.0000 Z1.0436 A-107.0637 F12.9696 
G1 X-2.3622 Y0.0000 Z1.0436 A-109.2050 F12.9696 
G1 X-2.3622 Y0.0000 Z1.0436 A-111.3463 F12.9696 
G1 X-2.3622 Y0.0000 Z1.0436 A-113.4875 F12.9696 
G1 X-2.3622 Y0.0000 Z1.0436 A-115.6288 F12.9696 
G1 X-2.3622 Y0.0000 Z1.0436 A-117.7701 F12.9696 
G1 X-2.3622 Y0.0000 Z1.0436 A-119.9114 F12.9696 
G1 X-2.3622 Y0.0000 Z1.0436 A-122.0526 F12.9696 
G1 X-2.3622 Y0.0000 Z1.0436 A-124.1939 F12.9696 
G1 X-2.3622 Y0.0000 Z1.0436 A-126.3352 F12.9696 
G1 X-2.3622 Y0.0000 Z1.0436 A-128.4765 F12.9696 
G1 X-2.3622 Y0.0000 Z1.0436 A-130.6177 F12.9696 
G1 X-2.3622 Y0.0000 Z1.0436 A-132.7590 F12.9696 
G1 X-2.3622 Y0.0000 Z1.0436 A-134.9003 F12.9696 
G1 X-2.3622 Y0.0000 Z1.0436 A-137.0416 F12.9696 
G1 X-2.3622 Y0.0000 Z1.0436 A-139.1828 F12.9696 
G1 X-2.3622 Y0.0000 Z1.0436 A-141.3241 F12.9696 
G1 X-2.3622 Y0.0000 Z1.0436 A-143.4654 F12.9696 
G1 X-2.3622 Y0.0000 Z1.0436 A-145.6067 F12.9696 
G1 X-2.3622 Y0.0000 Z1.0436 A-147.7479 F12.9696 
G1 X-2.3622 Y0.0000 Z1.0436 A-149.8892 F12.9696 
G1 X-2.3622 Y0.0000 Z1.0436 A-152.0305 F12.9696 
G1 X-2.3622 Y0.0000 Z1.0436 A-154.1718 F12.9696 
G1 X-2.3622 Y0.0000 Z1.0436 A-156.3130 F12.9696 
G1 X-2.3622 Y0.0000 Z1.0436 A-158.4543 F12.9696 
G1 X-2.3622 Y0.0000 Z1.0436 A-160.5956 F12.9696 
G1 X-2.3622 Y0.0000 Z1.0436 A-162.7369 F12.9696 
G1 X-2.3622 Y0.0000 Z1.0436 A-164.8781 F12.9696 
G1 X-2.3622 Y0.0000 Z1.0436 A-167.0194 F12.9696 
G1 X-2.3622 Y0.0000 Z1.0436 A-169.1607 F12.9696 
G1 X-2.3622 Y0.0000 Z1.0436 A-171.3019 F12.9696 
G1 X-2.3622 Y0.0000 Z1.0436 A-173.4432 F12.9696 
G1 X-2.3622 Y0.0000 Z1.0436 A-175.5845 F12.9696 
G1 X-2.3622 Y0.0000 Z1.0436 A-177.7258 F12.9696 
G1 X-2.3622 Y0.0000 Z1.0436 A-179.8670 F12.9696 
G1 X-2.3622 Y0.0000 Z1.0436 A-182.0083 F12.9696 
G1 X-2.3622 Y0.0000 Z1.0436 A-184.1496 F12.9696 
G1 X-2.3622 Y0.0000 Z1.0436 A-186.2909 F12.9696 
G1 X-2.3622 Y0.0000 Z1.0436 A-188.4321 F12.9696 
G1 X-2.3622 Y0.0000 Z1.0436 A-190.5734 F12.9696 
G1 X-2.3622 Y0.0000 Z1.0436 A-192.7147 F12.9696 
G1 X-2.3622 Y0.0000 Z1.0436 A-194.8560 F12.9696 
G1 X-2.3622 Y0.0000 Z1.0436 A-196.9972 F12.9696 
G1 X-2.3622 Y0.0000 Z1.0436 A-199.1385 F12.9696 
G1 X-2.3622 Y0.0000 Z1.0436 A-201.2798 F12.9696 
G1 X-2.3622 Y0.0000 Z1.0436 A-203.4211 F12.9696 
G1 X-2.3622 Y0.0000 Z1.0436 A-205.5623 F12.9696 
G1 X-2.3622 Y0.0000 Z1.0436 A-207.7036 F12.9696 
G1 X-2.3622 Y0.0000 Z1.0436 A-209.8449 F12.9696 
G1 X-2.3622 Y0.0000 Z1.0436 A-211.9862 F12.9696 
G1 X-2.3622 Y0.0000 Z1.0436 A-214.1274 F12.9696 
G1 X-2.3622 Y0.0000 Z1.0436 A-216.2687 F12.9696 
G1 X-2.3622 Y0.0000 Z1.0436 A-218.4100 F12.9696 
G1 X-2.3622 Y0.0000 Z1.0436 A-220.5513 F12.9696 
G1 X-2.3622 Y0.0000 Z1.0436 A-222.6925 F12.9696 
G1 X-2.3622 Y0.0000 Z1.0436 A-224.8338 F12.9696 
G1 X-2.3622 Y0.0000 Z1.0436 A-226.9751 F12.9696 
G1 X-2.3622 Y0.0000 Z1.0436 A-229.1164 F12.9696 
G1 X-2.3622 Y0.0000 Z1.0436 A-231.2576 F12.9696 
G1 X-2.3622 Y0.0000 Z1.0436 A-233.3989 F12.9696 
G1 X-2.3622 Y0.0000 Z1.0436 A-235.5402 F12.9696 
G1 X-2.3622 Y0.0000 Z1.0436 A-237.6815 F12.9696 
G1 X-2.3622 Y0.0000 Z1.0436 A-239.8227 F12.9696 
G1 X-2.3622 Y0.0000 Z1.0436 A-241.9640 F12.9696 
G1 X-2.3622 Y0.0000 Z1.0436 A-244.1053 F12.9696 
G1 X-2.3622 Y0.0000 Z1.0436 A-246.2466 F12.9696 
G1 X-2.3622 Y0.0000 Z1.0436 A-248.3878 F12.9696 
G1 X-2.3622 Y0.0000 Z1.0436 A-250.5291 F12.9696 
G1 X-2.3622 Y0.0000 Z1.0436 A-252.6704 F12.9696 
G1 X-2.3622 Y0.0000 Z1.0436 A-254.8116 F12.9696 
G1 X-2.3622 Y0.0000 Z1.0436 A-256.9529 F12.9696 
G1 X-2.3622 Y0.0000 Z1.0436 A-259.0942 F12.9696 
G1 X-2.3622 Y0.0000 Z1.0436 A-261.2355 F12.9696 
G1 X-2.3622 Y0.0000 Z1.0436 A-263.3767 F12.9696 
G1 X-2.3622 Y0.0000 Z1.0436 A-265.5180 F12.9696 
G1 X-2.3622 Y0.0000 Z1.0436 A-267.6593 F12.9696 
G1 X-2.3622 Y0.0000 Z1.0436 A-269.8006 F12.9696 
G1 X-2.3622 Y0.0000 Z1.0436 A-271.9418 F12.9696 
G1 X-2.3622 Y0.0000 Z1.0436 A-274.0831 F12.9696 
G1 X-2.3622 Y0.0000 Z1.0436 A-276.2244 F12.9696 
G1 X-2.3622 Y0.0000 Z1.0436 A-278.3657 F12.9696 
G1 X-2.3622 Y0.0000 Z1.0436 A-280.5069 F12.9696 
G1 X-2.3622 Y0.0000 Z1.0436 A-282.6482 F12.9696 
G1 X-2.3622 Y0.0000 Z1.0436 A-284.7895 F12.9696 
G1 X-2.3622 Y0.0000 Z1.0436 A-286.9308 F12.9696 
G1 X-2.3622 Y0.0000 Z1.0436 A-289.0720 F12.9696 
G1 X-2.3622 Y0.0000 Z1.0436 A-291.2133 F12.9696 
G1 X-2.3622 Y0.0000 Z1.0436 A-293.3546 F12.9696 
G1 X-2.3622 Y0.0000 Z1.0436 A-295.4959 F12.9696 
G1 X-2.3622 Y0.0000 Z1.0436 A-297.6371 F12.9696 
G1 X-2.3622 Y0.0000 Z1.0436 A-299.7784 F12.9696 
G1 X-2.3622 Y0.0000 Z1.0436 A-301.9197 F12.9696 
G1 X-2.3622 Y0.0000 Z1.0436 A-304.0610 F12.9696 
G1 X-2.3622 Y0.0000 Z1.0436 A-306.2022 F12.9696 
G1 X-2.3622 Y0.0000 Z1.0436 A-308.3435 F12.9696 
G1 X-2.3622 Y0.0000 Z1.0436 A-310.4848 F12.9696 
G1 X-2.3622 Y0.0000 Z1.0436 A-312.6261 F12.9696 
G1 X-2.3622 Y0.0000 Z1.0436 A-314.7673 F12.9696 
G1 X-2.3622 Y0.0000 Z1.0436 A-316.9086 F12.9696 
G1 X-2.3622 Y0.0000 Z1.0436 A-319.0499 F12.9696 
G1 X-2.3622 Y0.0000 Z1.0436 A-321.1912 F12.9696 
G1 X-2.3622 Y0.0000 Z1.0436 A-323.3324 F12.9696 
G1 X-2.3622 Y0.0000 Z1.0436 A-325.4737 F12.9696 
G1 X-2.3622 Y0.0000 Z1.0436 A-327.6150 F12.9696 
G1 X-2.3622 Y0.0000 Z1.0436 A-329.7563 F12.9696 
G1 X-2.3622 Y0.0000 Z1.0436 A-331.8975 F12.9696 
G1 X-2.3622 Y0.0000 Z1.0436 A-334.0388 F12.9696 
G1 X-2.3622 Y0.0000 Z1.0436 A-336.1801 F12.9696 
G1 X-2.3622 Y0.0000 Z1.0436 A-338.3213 F12.9696 
G1 X-2.3622 Y0.0000 Z1.0436 A-340.4626 F12.9696 
G1 X-2.3622 Y0.0000 Z1.0436 A-342.6039 F12.9696 
G1 X-2.3622 Y0.0000 Z1.0436 A-344.7452 F12.9696 
G1 X-2.3622 Y0.0000 Z1.0436 A-346.8864 F12.9696 
G1 X-2.3622 Y0.0000 Z1.0436 A-349.0277 F12.9696 
G1 X-2.3622 Y0.0000 Z1.0436 A-351.1690 F12.9696 
G1 X-2.3622 Y0.0000 Z1.0436 A-353.3103 F12.9696 
G1 X-2.3622 Y0.0000 Z1.0436 A-355.4515 F12.9696 
G1 X-2.3622 Y0.0000 Z1.0436 A-357.5928 F12.9696 
G1 X-2.3622 Y0.0000 Z1.0436 A-359.7341 F12.9696 
G1 X-2.3622 Y0.0000 Z1.0436 A-359.7341 F12.9696 
G1 Z1.2404 
G0 A0.0000 
G1 X-2.1654 Y0.0000 F12.9696 
G1 Z1.0436 F12.9696 
G1 X-2.1654 Y0.0000 Z1.0436 A0.0000 F12.9696 
G1 X-2.1654 Y0.0000 Z1.0436 A-2.1413 F12.9696 
G1 X-2.1654 Y0.0000 Z1.0436 A-4.2825 F12.9696 
G1 X-2.1654 Y0.0000 Z1.0436 A-6.4238 F12.9696 
G1 X-2.1654 Y0.0000 Z1.0436 A-8.5651 F12.9696 
G1 X-2.1654 Y0.0000 Z1.0436 A-10.7064 F12.9696 
G1 X-2.1654 Y0.0000 Z1.0436 A-12.8476 F12.9696 
G1 X-2.1654 Y0.0000 Z1.0436 A-14.9889 F12.9696 
G1 X-2.1654 Y0.0000 Z1.0436 A-17.1302 F12.9696 
G1 X-2.1654 Y0.0000 Z1.0436 A-19.2715 F12.9696 
G1 X-2.1654 Y0.0000 Z1.0436 A-21.4127 F12.9696 
G1 X-2.1654 Y0.0000 Z1.0436 A-23.5540 F12.9696 
G1 X-2.1654 Y0.0000 Z1.0436 A-25.6953 F12.9696 
G1 X-2.1654 Y0.0000 Z1.0436 A-27.8366 F12.9696 
G1 X-2.1654 Y0.0000 Z1.0436 A-29.9778 F12.9696 
G1 X-2.1654 Y0.0000 Z1.0436 A-32.1191 F12.9696 
G1 X-2.1654 Y0.0000 Z1.0436 A-34.2604 F12.9696 
G1 X-2.1654 Y0.0000 Z1.0436 A-36.4017 F12.9696 
G1 X-2.1654 Y0.0000 Z1.0436 A-38.5429 F12.9696 
G1 X-2.1654 Y0.0000 Z1.0436 A-40.6842 F12.9696 
G1 X-2.1654 Y0.0000 Z1.0436 A-42.8255 F12.9696 
G1 X-2.1654 Y0.0000 Z1.0436 A-44.9668 F12.9696 
G1 X-2.1654 Y0.0000 Z1.0436 A-47.1080 F12.9696 
G1 X-2.1654 Y0.0000 Z1.0436 A-49.2493 F12.9696 
G1 X-2.1654 Y0.0000 Z1.0436 A-51.3906 F12.9696 
G1 X-2.1654 Y0.0000 Z1.0436 A-53.5319 F12.9696 
G1 X-2.1654 Y0.0000 Z1.0436 A-55.6731 F12.9696 
G1 X-2.1654 Y0.0000 Z1.0436 A-57.8144 F12.9696 
G1 X-2.1654 Y0.0000 Z1.0436 A-59.9557 F12.9696 
G1 X-2.1654 Y0.0000 Z1.0436 A-62.0970 F12.9696 
G1 X-2.1654 Y0.0000 Z1.0436 A-64.2382 F12.9696 
G1 X-2.1654 Y0.0000 Z1.0436 A-66.3795 F12.9696 
G1 X-2.1654 Y0.0000 Z1.0436 A-68.5208 F12.9696 
G1 X-2.1654 Y0.0000 Z1.0436 A-70.6621 F12.9696 
G1 X-2.1654 Y0.0000 Z1.0436 A-72.8033 F12.9696 
G1 X-2.1654 Y0.0000 Z1.0436 A-74.9446 F12.9696 
G1 X-2.1654 Y0.0000 Z1.0436 A-77.0859 F12.9696 
G1 X-2.1654 Y0.0000 Z1.0436 A-79.2272 F12.9696 
G1 X-2.1654 Y0.0000 Z1.0436 A-81.3684 F12.9696 
G1 X-2.1654 Y0.0000 Z1.0436 A-83.5097 F12.9696 
G1 X-2.1654 Y0.0000 Z1.0436 A-85.6510 F12.9696 
G1 X-2.1654 Y0.0000 Z1.0436 A-87.7922 F12.9696 
G1 X-2.1654 Y0.0000 Z1.0436 A-89.9335 F12.9696 
G1 X-2.1654 Y0.0000 Z1.0436 A-92.0748 F12.9696 
G1 X-2.1654 Y0.0000 Z1.0436 A-94.2161 F12.9696 
G1 X-2.1654 Y0.0000 Z1.0436 A-96.3573 F12.9696 
G1 X-2.1654 Y0.0000 Z1.0436 A-98.4986 F12.9696 
G1 X-2.1654 Y0.0000 Z1.0436 A-100.6399 F12.9696 
G1 X-2.1654 Y0.0000 Z1.0436 A-102.7812 F12.9696 
G1 X-2.1654 Y0.0000 Z1.0436 A-104.9224 F12.9696 
G1 X-2.1654 Y0.0000 Z1.0436 A-107.0637 F12.9696 
G1 X-2.1654 Y0.0000 Z1.0436 A-109.2050 F12.9696 
G1 X-2.1654 Y0.0000 Z1.0436 A-111.3463 F12.9696 
G1 X-2.1654 Y0.0000 Z1.0436 A-113.4875 F12.9696 
G1 X-2.1654 Y0.0000 Z1.0436 A-115.6288 F12.9696 
G1 X-2.1654 Y0.0000 Z1.0436 A-117.7701 F12.9696 
G1 X-2.1654 Y0.0000 Z1.0436 A-119.9114 F12.9696 
G1 X-2.1654 Y0.0000 Z1.0436 A-122.0526 F12.9696 
G1 X-2.1654 Y0.0000 Z1.0436 A-124.1939 F12.9696 
G1 X-2.1654 Y0.0000 Z1.0436 A-126.3352 F12.9696 
G1 X-2.1654 Y0.0000 Z1.0436 A-128.4765 F12.9696 
G1 X-2.1654 Y0.0000 Z1.0436 A-130.6177 F12.9696 
G1 X-2.1654 Y0.0000 Z1.0436 A-132.7590 F12.9696 
G1 X-2.1654 Y0.0000 Z1.0436 A-134.9003 F12.9696 
G1 X-2.1654 Y0.0000 Z1.0436 A-137.0416 F12.9696 
G1 X-2.1654 Y0.0000 Z1.0436 A-139.1828 F12.9696 
G1 X-2.1654 Y0.0000 Z1.0436 A-141.3241 F12.9696 
G1 X-2.1654 Y0.0000 Z1.0436 A-143.4654 F12.9696 
G1 X-2.1654 Y0.0000 Z1.0436 A-145.6067 F12.9696 
G1 X-2.1654 Y0.0000 Z1.0436 A-147.7479 F12.9696 
G1 X-2.1654 Y0.0000 Z1.0436 A-149.8892 F12.9696 
G1 X-2.1654 Y0.0000 Z1.0436 A-152.0305 F12.9696 
G1 X-2.1654 Y0.0000 Z1.0436 A-154.1718 F12.9696 
G1 X-2.1654 Y0.0000 Z1.0436 A-156.3130 F12.9696 
G1 X-2.1654 Y0.0000 Z1.0436 A-158.4543 F12.9696 
G1 X-2.1654 Y0.0000 Z1.0436 A-160.5956 F12.9696 
G1 X-2.1654 Y0.0000 Z1.0436 A-162.7369 F12.9696 
G1 X-2.1654 Y0.0000 Z1.0436 A-164.8781 F12.9696 
G1 X-2.1654 Y0.0000 Z1.0436 A-167.0194 F12.9696 
G1 X-2.1654 Y0.0000 Z1.0436 A-169.1607 F12.9696 
G1 X-2.1654 Y0.0000 Z1.0436 A-171.3019 F12.9696 
G1 X-2.1654 Y0.0000 Z1.0436 A-173.4432 F12.9696 
G1 X-2.1654 Y0.0000 Z1.0436 A-175.5845 F12.9696 
G1 X-2.1654 Y0.0000 Z1.0436 A-177.7258 F12.9696 
G1 X-2.1654 Y0.0000 Z1.0436 A-179.8670 F12.9696 
G1 X-2.1654 Y0.0000 Z1.0436 A-182.0083 F12.9696 
G1 X-2.1654 Y0.0000 Z1.0436 A-184.1496 F12.9696 
G1 X-2.1654 Y0.0000 Z1.0436 A-186.2909 F12.9696 
G1 X-2.1654 Y0.0000 Z1.0436 A-188.4321 F12.9696 
G1 X-2.1654 Y0.0000 Z1.0436 A-190.5734 F12.9696 
G1 X-2.1654 Y0.0000 Z1.0436 A-192.7147 F12.9696 
G1 X-2.1654 Y0.0000 Z1.0436 A-194.8560 F12.9696 
G1 X-2.1654 Y0.0000 Z1.0436 A-196.9972 F12.9696 
G1 X-2.1654 Y0.0000 Z1.0436 A-199.1385 F12.9696 
G1 X-2.1654 Y0.0000 Z1.0436 A-201.2798 F12.9696 
G1 X-2.1654 Y0.0000 Z1.0436 A-203.4211 F12.9696 
G1 X-2.1654 Y0.0000 Z1.0436 A-205.5623 F12.9696 
G1 X-2.1654 Y0.0000 Z1.0436 A-207.7036 F12.9696 
G1 X-2.1654 Y0.0000 Z1.0436 A-209.8449 F12.9696 
G1 X-2.1654 Y0.0000 Z1.0436 A-211.9862 F12.9696 
G1 X-2.1654 Y0.0000 Z1.0436 A-214.1274 F12.9696 
G1 X-2.1654 Y0.0000 Z1.0436 A-216.2687 F12.9696 
G1 X-2.1654 Y0.0000 Z1.0436 A-218.4100 F12.9696 
G1 X-2.1654 Y0.0000 Z1.0436 A-220.5513 F12.9696 
G1 X-2.1654 Y0.0000 Z1.0436 A-222.6925 F12.9696 
G1 X-2.1654 Y0.0000 Z1.0436 A-224.8338 F12.9696 
G1 X-2.1654 Y0.0000 Z1.0436 A-226.9751 F12.9696 
G1 X-2.1654 Y0.0000 Z1.0436 A-229.1164 F12.9696 
G1 X-2.1654 Y0.0000 Z1.0436 A-231.2576 F12.9696 
G1 X-2.1654 Y0.0000 Z1.0436 A-233.3989 F12.9696 
G1 X-2.1654 Y0.0000 Z1.0436 A-235.5402 F12.9696 
G1 X-2.1654 Y0.0000 Z1.0436 A-237.6815 F12.9696 
G1 X-2.1654 Y0.0000 Z1.0436 A-239.8227 F12.9696 
G1 X-2.1654 Y0.0000 Z1.0436 A-241.9640 F12.9696 
G1 X-2.1654 Y0.0000 Z1.0436 A-244.1053 F12.9696 
G1 X-2.1654 Y0.0000 Z1.0436 A-246.2466 F12.9696 
G1 X-2.1654 Y0.0000 Z1.0436 A-248.3878 F12.9696 
G1 X-2.1654 Y0.0000 Z1.0436 A-250.5291 F12.9696 
G1 X-2.1654 Y0.0000 Z1.0436 A-252.6704 F12.9696 
G1 X-2.1654 Y0.0000 Z1.0436 A-254.8116 F12.9696 
G1 X-2.1654 Y0.0000 Z1.0436 A-256.9529 F12.9696 
G1 X-2.1654 Y0.0000 Z1.0436 A-259.0942 F12.9696 
G1 X-2.1654 Y0.0000 Z1.0436 A-261.2355 F12.9696 
G1 X-2.1654 Y0.0000 Z1.0436 A-263.3767 F12.9696 
G1 X-2.1654 Y0.0000 Z1.0436 A-265.5180 F12.9696 
G1 X-2.1654 Y0.0000 Z1.0436 A-267.6593 F12.9696 
G1 X-2.1654 Y0.0000 Z1.0436 A-269.8006 F12.9696 
G1 X-2.1654 Y0.0000 Z1.0436 A-271.9418 F12.9696 
G1 X-2.1654 Y0.0000 Z1.0436 A-274.0831 F12.9696 
G1 X-2.1654 Y0.0000 Z1.0436 A-276.2244 F12.9696 
G1 X-2.1654 Y0.0000 Z1.0436 A-278.3657 F12.9696 
G1 X-2.1654 Y0.0000 Z1.0436 A-280.5069 F12.9696 
G1 X-2.1654 Y0.0000 Z1.0436 A-282.6482 F12.9696 
G1 X-2.1654 Y0.0000 Z1.0436 A-284.7895 F12.9696 
G1 X-2.1654 Y0.0000 Z1.0436 A-286.9308 F12.9696 
G1 X-2.1654 Y0.0000 Z1.0436 A-289.0720 F12.9696 
G1 X-2.1654 Y0.0000 Z1.0436 A-291.2133 F12.9696 
G1 X-2.1654 Y0.0000 Z1.0436 A-293.3546 F12.9696 
G1 X-2.1654 Y0.0000 Z1.0436 A-295.4959 F12.9696 
G1 X-2.1654 Y0.0000 Z1.0436 A-297.6371 F12.9696 
G1 X-2.1654 Y0.0000 Z1.0436 A-299.7784 F12.9696 
G1 X-2.1654 Y0.0000 Z1.0436 A-301.9197 F12.9696 
G1 X-2.1654 Y0.0000 Z1.0436 A-304.0610 F12.9696 
G1 X-2.1654 Y0.0000 Z1.0436 A-306.2022 F12.9696 
G1 X-2.1654 Y0.0000 Z1.0436 A-308.3435 F12.9696 
G1 X-2.1654 Y0.0000 Z1.0436 A-310.4848 F12.9696 
G1 X-2.1654 Y0.0000 Z1.0436 A-312.6261 F12.9696 
G1 X-2.1654 Y0.0000 Z1.0436 A-314.7673 F12.9696 
G1 X-2.1654 Y0.0000 Z1.0436 A-316.9086 F12.9696 
G1 X-2.1654 Y0.0000 Z1.0436 A-319.0499 F12.9696 
G1 X-2.1654 Y0.0000 Z1.0436 A-321.1912 F12.9696 
G1 X-2.1654 Y0.0000 Z1.0436 A-323.3324 F12.9696 
G1 X-2.1654 Y0.0000 Z1.0436 A-325.4737 F12.9696 
G1 X-2.1654 Y0.0000 Z1.0436 A-327.6150 F12.9696 
G1 X-2.1654 Y0.0000 Z1.0436 A-329.7563 F12.9696 
G1 X-2.1654 Y0.0000 Z1.0436 A-331.8975 F12.9696 
G1 X-2.1654 Y0.0000 Z1.0436 A-334.0388 F12.9696 
G1 X-2.1654 Y0.0000 Z1.0436 A-336.1801 F12.9696 
G1 X-2.1654 Y0.0000 Z1.0436 A-338.3213 F12.9696 
G1 X-2.1654 Y0.0000 Z1.0436 A-340.4626 F12.9696 
G1 X-2.1654 Y0.0000 Z1.0436 A-342.6039 F12.9696 
G1 X-2.1654 Y0.0000 Z1.0436 A-344.7452 F12.9696 
G1 X-2.1654 Y0.0000 Z1.0436 A-346.8864 F12.9696 
G1 X-2.1654 Y0.0000 Z1.0436 A-349.0277 F12.9696 
G1 X-2.1654 Y0.0000 Z1.0436 A-351.1690 F12.9696 
G1 X-2.1654 Y0.0000 Z1.0436 A-353.3103 F12.9696 
G1 X-2.1654 Y0.0000 Z1.0436 A-355.4515 F12.9696 
G1 X-2.1654 Y0.0000 Z1.0436 A-357.5928 F12.9696 
G1 X-2.1654 Y0.0000 Z1.0436 A-359.7341 F12.9696 
G1 X-2.1654 Y0.0000 Z1.0436 A-359.7341 F12.9696 
G1 Z1.2404 
G0 A0.0000 
G1 X-1.9685 Y0.0000 F12.9696 
G1 Z1.0436 F12.9696 
G1 X-1.9685 Y0.0000 Z1.0436 A0.0000 F12.9696 
G1 X-1.9685 Y0.0000 Z1.0436 A-2.1413 F12.9696 
G1 X-1.9685 Y0.0000 Z1.0436 A-4.2825 F12.9696 
G1 X-1.9685 Y0.0000 Z1.0436 A-6.4238 F12.9696 
G1 X-1.9685 Y0.0000 Z1.0436 A-8.5651 F12.9696 
G1 X-1.9685 Y0.0000 Z1.0436 A-10.7064 F12.9696 
G1 X-1.9685 Y0.0000 Z1.0436 A-12.8476 F12.9696 
G1 X-1.9685 Y0.0000 Z1.0436 A-14.9889 F12.9696 
G1 X-1.9685 Y0.0000 Z1.0436 A-17.1302 F12.9696 
G1 X-1.9685 Y0.0000 Z1.0436 A-19.2715 F12.9696 
G1 X-1.9685 Y0.0000 Z1.0436 A-21.4127 F12.9696 
G1 X-1.9685 Y0.0000 Z1.0436 A-23.5540 F12.9696 
G1 X-1.9685 Y0.0000 Z1.0436 A-25.6953 F12.9696 
G1 X-1.9685 Y0.0000 Z1.0436 A-27.8366 F12.9696 
G1 X-1.9685 Y0.0000 Z1.0436 A-29.9778 F12.9696 
G1 X-1.9685 Y0.0000 Z1.0436 A-32.1191 F12.9696 
G1 X-1.9685 Y0.0000 Z1.0436 A-34.2604 F12.9696 
G1 X-1.9685 Y0.0000 Z1.0436 A-36.4017 F12.9696 
G1 X-1.9685 Y0.0000 Z1.0436 A-38.5429 F12.9696 
G1 X-1.9685 Y0.0000 Z1.0436 A-40.6842 F12.9696 
G1 X-1.9685 Y0.0000 Z1.0436 A-42.8255 F12.9696 
G1 X-1.9685 Y0.0000 Z1.0436 A-44.9668 F12.9696 
G1 X-1.9685 Y0.0000 Z1.0436 A-47.1080 F12.9696 
G1 X-1.9685 Y0.0000 Z1.0436 A-49.2493 F12.9696 
G1 X-1.9685 Y0.0000 Z1.0436 A-51.3906 F12.9696 
G1 X-1.9685 Y0.0000 Z1.0436 A-53.5319 F12.9696 
G1 X-1.9685 Y0.0000 Z1.0436 A-55.6731 F12.9696 
G1 X-1.9685 Y0.0000 Z1.0436 A-57.8144 F12.9696 
G1 X-1.9685 Y0.0000 Z1.0436 A-59.9557 F12.9696 
G1 X-1.9685 Y0.0000 Z1.0436 A-62.0970 F12.9696 
G1 X-1.9685 Y0.0000 Z1.0436 A-64.2382 F12.9696 
G1 X-1.9685 Y0.0000 Z1.0436 A-66.3795 F12.9696 
G1 X-1.9685 Y0.0000 Z1.0436 A-68.5208 F12.9696 
G1 X-1.9685 Y0.0000 Z1.0436 A-70.6621 F12.9696 
G1 X-1.9685 Y0.0000 Z1.0436 A-72.8033 F12.9696 
G1 X-1.9685 Y0.0000 Z1.0436 A-74.9446 F12.9696 
G1 X-1.9685 Y0.0000 Z1.0436 A-77.0859 F12.9696 
G1 X-1.9685 Y0.0000 Z1.0436 A-79.2272 F12.9696 
G1 X-1.9685 Y0.0000 Z1.0436 A-81.3684 F12.9696 
G1 X-1.9685 Y0.0000 Z1.0436 A-83.5097 F12.9696 
G1 X-1.9685 Y0.0000 Z1.0436 A-85.6510 F12.9696 
G1 X-1.9685 Y0.0000 Z1.0436 A-87.7922 F12.9696 
G1 X-1.9685 Y0.0000 Z1.0436 A-89.9335 F12.9696 
G1 X-1.9685 Y0.0000 Z1.0436 A-92.0748 F12.9696 
G1 X-1.9685 Y0.0000 Z1.0436 A-94.2161 F12.9696 
G1 X-1.9685 Y0.0000 Z1.0436 A-96.3573 F12.9696 
G1 X-1.9685 Y0.0000 Z1.0436 A-98.4986 F12.9696 
G1 X-1.9685 Y0.0000 Z1.0436 A-100.6399 F12.9696 
G1 X-1.9685 Y0.0000 Z1.0436 A-102.7812 F12.9696 
G1 X-1.9685 Y0.0000 Z1.0436 A-104.9224 F12.9696 
G1 X-1.9685 Y0.0000 Z1.0436 A-107.0637 F12.9696 
G1 X-1.9685 Y0.0000 Z1.0436 A-109.2050 F12.9696 
G1 X-1.9685 Y0.0000 Z1.0436 A-111.3463 F12.9696 
G1 X-1.9685 Y0.0000 Z1.0436 A-113.4875 F12.9696 
G1 X-1.9685 Y0.0000 Z1.0436 A-115.6288 F12.9696 
G1 X-1.9685 Y0.0000 Z1.0436 A-117.7701 F12.9696 
G1 X-1.9685 Y0.0000 Z1.0436 A-119.9114 F12.9696 
G1 X-1.9685 Y0.0000 Z1.0436 A-122.0526 F12.9696 
G1 X-1.9685 Y0.0000 Z1.0436 A-124.1939 F12.9696 
G1 X-1.9685 Y0.0000 Z1.0436 A-126.3352 F12.9696 
G1 X-1.9685 Y0.0000 Z1.0436 A-128.4765 F12.9696 
G1 X-1.9685 Y0.0000 Z1.0436 A-130.6177 F12.9696 
G1 X-1.9685 Y0.0000 Z1.0436 A-132.7590 F12.9696 
G1 X-1.9685 Y0.0000 Z1.0436 A-134.9003 F12.9696 
G1 X-1.9685 Y0.0000 Z1.0436 A-137.0416 F12.9696 
G1 X-1.9685 Y0.0000 Z1.0436 A-139.1828 F12.9696 
G1 X-1.9685 Y0.0000 Z1.0436 A-141.3241 F12.9696 
G1 X-1.9685 Y0.0000 Z1.0436 A-143.4654 F12.9696 
G1 X-1.9685 Y0.0000 Z1.0436 A-145.6067 F12.9696 
G1 X-1.9685 Y0.0000 Z1.0436 A-147.7479 F12.9696 
G1 X-1.9685 Y0.0000 Z1.0436 A-149.8892 F12.9696 
G1 X-1.9685 Y0.0000 Z1.0436 A-152.0305 F12.9696 
G1 X-1.9685 Y0.0000 Z1.0436 A-154.1718 F12.9696 
G1 X-1.9685 Y0.0000 Z1.0436 A-156.3130 F12.9696 
G1 X-1.9685 Y0.0000 Z1.0436 A-158.4543 F12.9696 
G1 X-1.9685 Y0.0000 Z1.0436 A-160.5956 F12.9696 
G1 X-1.9685 Y0.0000 Z1.0436 A-162.7369 F12.9696 
G1 X-1.9685 Y0.0000 Z1.0436 A-164.8781 F12.9696 
G1 X-1.9685 Y0.0000 Z1.0436 A-167.0194 F12.9696 
G1 X-1.9685 Y0.0000 Z1.0436 A-169.1607 F12.9696 
G1 X-1.9685 Y0.0000 Z1.0436 A-171.3019 F12.9696 
G1 X-1.9685 Y0.0000 Z1.0436 A-173.4432 F12.9696 
G1 X-1.9685 Y0.0000 Z1.0436 A-175.5845 F12.9696 
G1 X-1.9685 Y0.0000 Z1.0436 A-177.7258 F12.9696 
G1 X-1.9685 Y0.0000 Z1.0436 A-179.8670 F12.9696 
G1 X-1.9685 Y0.0000 Z1.0436 A-182.0083 F12.9696 
G1 X-1.9685 Y0.0000 Z1.0436 A-184.1496 F12.9696 
G1 X-1.9685 Y0.0000 Z1.0436 A-186.2909 F12.9696 
G1 X-1.9685 Y0.0000 Z1.0436 A-188.4321 F12.9696 
G1 X-1.9685 Y0.0000 Z1.0436 A-190.5734 F12.9696 
G1 X-1.9685 Y0.0000 Z1.0436 A-192.7147 F12.9696 
G1 X-1.9685 Y0.0000 Z1.0436 A-194.8560 F12.9696 
G1 X-1.9685 Y0.0000 Z1.0436 A-196.9972 F12.9696 
G1 X-1.9685 Y0.0000 Z1.0436 A-199.1385 F12.9696 
G1 X-1.9685 Y0.0000 Z1.0436 A-201.2798 F12.9696 
G1 X-1.9685 Y0.0000 Z1.0436 A-203.4211 F12.9696 
G1 X-1.9685 Y0.0000 Z1.0436 A-205.5623 F12.9696 
G1 X-1.9685 Y0.0000 Z1.0436 A-207.7036 F12.9696 
G1 X-1.9685 Y0.0000 Z1.0436 A-209.8449 F12.9696 
G1 X-1.9685 Y0.0000 Z1.0436 A-211.9862 F12.9696 
G1 X-1.9685 Y0.0000 Z1.0436 A-214.1274 F12.9696 
G1 X-1.9685 Y0.0000 Z1.0436 A-216.2687 F12.9696 
G1 X-1.9685 Y0.0000 Z1.0436 A-218.4100 F12.9696 
G1 X-1.9685 Y0.0000 Z1.0436 A-220.5513 F12.9696 
G1 X-1.9685 Y0.0000 Z1.0436 A-222.6925 F12.9696 
G1 X-1.9685 Y0.0000 Z1.0436 A-224.8338 F12.9696 
G1 X-1.9685 Y0.0000 Z1.0436 A-226.9751 F12.9696 
G1 X-1.9685 Y0.0000 Z1.0436 A-229.1164 F12.9696 
G1 X-1.9685 Y0.0000 Z1.0436 A-231.2576 F12.9696 
G1 X-1.9685 Y0.0000 Z1.0436 A-233.3989 F12.9696 
G1 X-1.9685 Y0.0000 Z1.0436 A-235.5402 F12.9696 
G1 X-1.9685 Y0.0000 Z1.0436 A-237.6815 F12.9696 
G1 X-1.9685 Y0.0000 Z1.0436 A-239.8227 F12.9696 
G1 X-1.9685 Y0.0000 Z1.0436 A-241.9640 F12.9696 
G1 X-1.9685 Y0.0000 Z1.0436 A-244.1053 F12.9696 
G1 X-1.9685 Y0.0000 Z1.0436 A-246.2466 F12.9696 
G1 X-1.9685 Y0.0000 Z1.0436 A-248.3878 F12.9696 
G1 X-1.9685 Y0.0000 Z1.0436 A-250.5291 F12.9696 
G1 X-1.9685 Y0.0000 Z1.0436 A-252.6704 F12.9696 
G1 X-1.9685 Y0.0000 Z1.0436 A-254.8116 F12.9696 
G1 X-1.9685 Y0.0000 Z1.0436 A-256.9529 F12.9696 
G1 X-1.9685 Y0.0000 Z1.0436 A-259.0942 F12.9696 
G1 X-1.9685 Y0.0000 Z1.0436 A-261.2355 F12.9696 
G1 X-1.9685 Y0.0000 Z1.0436 A-263.3767 F12.9696 
G1 X-1.9685 Y0.0000 Z1.0436 A-265.5180 F12.9696 
G1 X-1.9685 Y0.0000 Z1.0436 A-267.6593 F12.9696 
G1 X-1.9685 Y0.0000 Z1.0436 A-269.8006 F12.9696 
G1 X-1.9685 Y0.0000 Z1.0436 A-271.9418 F12.9696 
G1 X-1.9685 Y0.0000 Z1.0436 A-274.0831 F12.9696 
G1 X-1.9685 Y0.0000 Z1.0436 A-276.2244 F12.9696 
G1 X-1.9685 Y0.0000 Z1.0436 A-278.3657 F12.9696 
G1 X-1.9685 Y0.0000 Z1.0436 A-280.5069 F12.9696 
G1 X-1.9685 Y0.0000 Z1.0436 A-282.6482 F12.9696 
G1 X-1.9685 Y0.0000 Z1.0436 A-284.7895 F12.9696 
G1 X-1.9685 Y0.0000 Z1.0436 A-286.9308 F12.9696 
G1 X-1.9685 Y0.0000 Z1.0436 A-289.0720 F12.9696 
G1 X-1.9685 Y0.0000 Z1.0436 A-291.2133 F12.9696 
G1 X-1.9685 Y0.0000 Z1.0436 A-293.3546 F12.9696 
G1 X-1.9685 Y0.0000 Z1.0436 A-295.4959 F12.9696 
G1 X-1.9685 Y0.0000 Z1.0436 A-297.6371 F12.9696 
G1 X-1.9685 Y0.0000 Z1.0436 A-299.7784 F12.9696 
G1 X-1.9685 Y0.0000 Z1.0436 A-301.9197 F12.9696 
G1 X-1.9685 Y0.0000 Z1.0436 A-304.0610 F12.9696 
G1 X-1.9685 Y0.0000 Z1.0436 A-306.2022 F12.9696 
G1 X-1.9685 Y0.0000 Z1.0436 A-308.3435 F12.9696 
G1 X-1.9685 Y0.0000 Z1.0436 A-310.4848 F12.9696 
G1 X-1.9685 Y0.0000 Z1.0436 A-312.6261 F12.9696 
G1 X-1.9685 Y0.0000 Z1.0436 A-314.7673 F12.9696 
G1 X-1.9685 Y0.0000 Z1.0436 A-316.9086 F12.9696 
G1 X-1.9685 Y0.0000 Z1.0436 A-319.0499 F12.9696 
G1 X-1.9685 Y0.0000 Z1.0436 A-321.1912 F12.9696 
G1 X-1.9685 Y0.0000 Z1.0436 A-323.3324 F12.9696 
G1 X-1.9685 Y0.0000 Z1.0436 A-325.4737 F12.9696 
G1 X-1.9685 Y0.0000 Z1.0436 A-327.6150 F12.9696 
G1 X-1.9685 Y0.0000 Z1.0436 A-329.7563 F12.9696 
G1 X-1.9685 Y0.0000 Z1.0436 A-331.8975 F12.9696 
G1 X-1.9685 Y0.0000 Z1.0436 A-334.0388 F12.9696 
G1 X-1.9685 Y0.0000 Z1.0436 A-336.1801 F12.9696 
G1 X-1.9685 Y0.0000 Z1.0436 A-338.3213 F12.9696 
G1 X-1.9685 Y0.0000 Z1.0436 A-340.4626 F12.9696 
G1 X-1.9685 Y0.0000 Z1.0436 A-342.6039 F12.9696 
G1 X-1.9685 Y0.0000 Z1.0436 A-344.7452 F12.9696 
G1 X-1.9685 Y0.0000 Z1.0436 A-346.8864 F12.9696 
G1 X-1.9685 Y0.0000 Z1.0436 A-349.0277 F12.9696 
G1 X-1.9685 Y0.0000 Z1.0436 A-351.1690 F12.9696 
G1 X-1.9685 Y0.0000 Z1.0436 A-353.3103 F12.9696 
G1 X-1.9685 Y0.0000 Z1.0436 A-355.4515 F12.9696 
G1 X-1.9685 Y0.0000 Z1.0436 A-357.5928 F12.9696 
G1 X-1.9685 Y0.0000 Z1.0436 A-359.7341 F12.9696 
G1 X-1.9685 Y0.0000 Z1.0436 A-359.7341 F12.9696 
G1 Z1.2404 
G0 A0.0000 
G1 X-1.7717 Y0.0000 F12.9696 
G1 Z1.0436 F12.9696 
G1 X-1.7717 Y0.0000 Z1.0436 A0.0000 F12.9696 
G1 X-1.7717 Y0.0000 Z1.0436 A-2.1413 F12.9696 
G1 X-1.7717 Y0.0000 Z1.0436 A-4.2825 F12.9696 
G1 X-1.7717 Y0.0000 Z1.0436 A-6.4238 F12.9696 
G1 X-1.7717 Y0.0000 Z1.0436 A-8.5651 F12.9696 
G1 X-1.7717 Y0.0000 Z1.0436 A-10.7064 F12.9696 
G1 X-1.7717 Y0.0000 Z1.0436 A-12.8476 F12.9696 
G1 X-1.7717 Y0.0000 Z1.0436 A-14.9889 F12.9696 
G1 X-1.7717 Y0.0000 Z1.0436 A-17.1302 F12.9696 
G1 X-1.7717 Y0.0000 Z1.0436 A-19.2715 F12.9696 
G1 X-1.7717 Y0.0000 Z1.0436 A-21.4127 F12.9696 
G1 X-1.7717 Y0.0000 Z1.0436 A-23.5540 F12.9696 
G1 X-1.7717 Y0.0000 Z1.0436 A-25.6953 F12.9696 
G1 X-1.7717 Y0.0000 Z1.0436 A-27.8366 F12.9696 
G1 X-1.7717 Y0.0000 Z1.0436 A-29.9778 F12.9696 
G1 X-1.7717 Y0.0000 Z1.0436 A-32.1191 F12.9696 
G1 X-1.7717 Y0.0000 Z1.0436 A-34.2604 F12.9696 
G1 X-1.7717 Y0.0000 Z1.0436 A-36.4017 F12.9696 
G1 X-1.7717 Y0.0000 Z1.0436 A-38.5429 F12.9696 
G1 X-1.7717 Y0.0000 Z1.0436 A-40.6842 F12.9696 
G1 X-1.7717 Y0.0000 Z1.0436 A-42.8255 F12.9696 
G1 X-1.7717 Y0.0000 Z1.0436 A-44.9668 F12.9696 
G1 X-1.7717 Y0.0000 Z1.0436 A-47.1080 F12.9696 
G1 X-1.7717 Y0.0000 Z1.0436 A-49.2493 F12.9696 
G1 X-1.7717 Y0.0000 Z1.0436 A-51.3906 F12.9696 
G1 X-1.7717 Y0.0000 Z1.0436 A-53.5319 F12.9696 
G1 X-1.7717 Y0.0000 Z1.0436 A-55.6731 F12.9696 
G1 X-1.7717 Y0.0000 Z1.0436 A-57.8144 F12.9696 
G1 X-1.7717 Y0.0000 Z1.0436 A-59.9557 F12.9696 
G1 X-1.7717 Y0.0000 Z1.0436 A-62.0970 F12.9696 
G1 X-1.7717 Y0.0000 Z1.0436 A-64.2382 F12.9696 
G1 X-1.7717 Y0.0000 Z1.0436 A-66.3795 F12.9696 
G1 X-1.7717 Y0.0000 Z1.0436 A-68.5208 F12.9696 
G1 X-1.7717 Y0.0000 Z1.0436 A-70.6621 F12.9696 
G1 X-1.7717 Y0.0000 Z1.0436 A-72.8033 F12.9696 
G1 X-1.7717 Y0.0000 Z1.0436 A-74.9446 F12.9696 
G1 X-1.7717 Y0.0000 Z1.0436 A-77.0859 F12.9696 
G1 X-1.7717 Y0.0000 Z1.0436 A-79.2272 F12.9696 
G1 X-1.7717 Y0.0000 Z1.0436 A-81.3684 F12.9696 
G1 X-1.7717 Y0.0000 Z1.0436 A-83.5097 F12.9696 
G1 X-1.7717 Y0.0000 Z1.0436 A-85.6510 F12.9696 
G1 X-1.7717 Y0.0000 Z1.0436 A-87.7922 F12.9696 
G1 X-1.7717 Y0.0000 Z1.0436 A-89.9335 F12.9696 
G1 X-1.7717 Y0.0000 Z1.0436 A-92.0748 F12.9696 
G1 X-1.7717 Y0.0000 Z1.0436 A-94.2161 F12.9696 
G1 X-1.7717 Y0.0000 Z1.0436 A-96.3573 F12.9696 
G1 X-1.7717 Y0.0000 Z1.0436 A-98.4986 F12.9696 
G1 X-1.7717 Y0.0000 Z1.0436 A-100.6399 F12.9696 
G1 X-1.7717 Y0.0000 Z1.0436 A-102.7812 F12.9696 
G1 X-1.7717 Y0.0000 Z1.0436 A-104.9224 F12.9696 
G1 X-1.7717 Y0.0000 Z1.0436 A-107.0637 F12.9696 
G1 X-1.7717 Y0.0000 Z1.0436 A-109.2050 F12.9696 
G1 X-1.7717 Y0.0000 Z1.0436 A-111.3463 F12.9696 
G1 X-1.7717 Y0.0000 Z1.0436 A-113.4875 F12.9696 
G1 X-1.7717 Y0.0000 Z1.0436 A-115.6288 F12.9696 
G1 X-1.7717 Y0.0000 Z1.0436 A-117.7701 F12.9696 
G1 X-1.7717 Y0.0000 Z1.0436 A-119.9114 F12.9696 
G1 X-1.7717 Y0.0000 Z1.0436 A-122.0526 F12.9696 
G1 X-1.7717 Y0.0000 Z1.0436 A-124.1939 F12.9696 
G1 X-1.7717 Y0.0000 Z1.0436 A-126.3352 F12.9696 
G1 X-1.7717 Y0.0000 Z1.0436 A-128.4765 F12.9696 
G1 X-1.7717 Y0.0000 Z1.0436 A-130.6177 F12.9696 
G1 X-1.7717 Y0.0000 Z1.0436 A-132.7590 F12.9696 
G1 X-1.7717 Y0.0000 Z1.0436 A-134.9003 F12.9696 
G1 X-1.7717 Y0.0000 Z1.0436 A-137.0416 F12.9696 
G1 X-1.7717 Y0.0000 Z1.0436 A-139.1828 F12.9696 
G1 X-1.7717 Y0.0000 Z1.0436 A-141.3241 F12.9696 
G1 X-1.7717 Y0.0000 Z1.0436 A-143.4654 F12.9696 
G1 X-1.7717 Y0.0000 Z1.0436 A-145.6067 F12.9696 
G1 X-1.7717 Y0.0000 Z1.0436 A-147.7479 F12.9696 
G1 X-1.7717 Y0.0000 Z1.0436 A-149.8892 F12.9696 
G1 X-1.7717 Y0.0000 Z1.0436 A-152.0305 F12.9696 
G1 X-1.7717 Y0.0000 Z1.0436 A-154.1718 F12.9696 
G1 X-1.7717 Y0.0000 Z1.0436 A-156.3130 F12.9696 
G1 X-1.7717 Y0.0000 Z1.0436 A-158.4543 F12.9696 
G1 X-1.7717 Y0.0000 Z1.0436 A-160.5956 F12.9696 
G1 X-1.7717 Y0.0000 Z1.0436 A-162.7369 F12.9696 
G1 X-1.7717 Y0.0000 Z1.0436 A-164.8781 F12.9696 
G1 X-1.7717 Y0.0000 Z1.0436 A-167.0194 F12.9696 
G1 X-1.7717 Y0.0000 Z1.0436 A-169.1607 F12.9696 
G1 X-1.7717 Y0.0000 Z1.0436 A-171.3019 F12.9696 
G1 X-1.7717 Y0.0000 Z1.0436 A-173.4432 F12.9696 
G1 X-1.7717 Y0.0000 Z1.0436 A-175.5845 F12.9696 
G1 X-1.7717 Y0.0000 Z1.0436 A-177.7258 F12.9696 
G1 X-1.7717 Y0.0000 Z1.0436 A-179.8670 F12.9696 
G1 X-1.7717 Y0.0000 Z1.0436 A-182.0083 F12.9696 
G1 X-1.7717 Y0.0000 Z1.0436 A-184.1496 F12.9696 
G1 X-1.7717 Y0.0000 Z1.0436 A-186.2909 F12.9696 
G1 X-1.7717 Y0.0000 Z1.0436 A-188.4321 F12.9696 
G1 X-1.7717 Y0.0000 Z1.0436 A-190.5734 F12.9696 
G1 X-1.7717 Y0.0000 Z1.0436 A-192.7147 F12.9696 
G1 X-1.7717 Y0.0000 Z1.0436 A-194.8560 F12.9696 
G1 X-1.7717 Y0.0000 Z1.0436 A-196.9972 F12.9696 
G1 X-1.7717 Y0.0000 Z1.0436 A-199.1385 F12.9696 
G1 X-1.7717 Y0.0000 Z1.0436 A-201.2798 F12.9696 
G1 X-1.7717 Y0.0000 Z1.0436 A-203.4211 F12.9696 
G1 X-1.7717 Y0.0000 Z1.0436 A-205.5623 F12.9696 
G1 X-1.7717 Y0.0000 Z1.0436 A-207.7036 F12.9696 
G1 X-1.7717 Y0.0000 Z1.0436 A-209.8449 F12.9696 
G1 X-1.7717 Y0.0000 Z1.0436 A-211.9862 F12.9696 
G1 X-1.7717 Y0.0000 Z1.0436 A-214.1274 F12.9696 
G1 X-1.7717 Y0.0000 Z1.0436 A-216.2687 F12.9696 
G1 X-1.7717 Y0.0000 Z1.0436 A-218.4100 F12.9696 
G1 X-1.7717 Y0.0000 Z1.0436 A-220.5513 F12.9696 
G1 X-1.7717 Y0.0000 Z1.0436 A-222.6925 F12.9696 
G1 X-1.7717 Y0.0000 Z1.0436 A-224.8338 F12.9696 
G1 X-1.7717 Y0.0000 Z1.0436 A-226.9751 F12.9696 
G1 X-1.7717 Y0.0000 Z1.0436 A-229.1164 F12.9696 
G1 X-1.7717 Y0.0000 Z1.0436 A-231.2576 F12.9696 
G1 X-1.7717 Y0.0000 Z1.0436 A-233.3989 F12.9696 
G1 X-1.7717 Y0.0000 Z1.0436 A-235.5402 F12.9696 
G1 X-1.7717 Y0.0000 Z1.0436 A-237.6815 F12.9696 
G1 X-1.7717 Y0.0000 Z1.0436 A-239.8227 F12.9696 
G1 X-1.7717 Y0.0000 Z1.0436 A-241.9640 F12.9696 
G1 X-1.7717 Y0.0000 Z1.0436 A-244.1053 F12.9696 
G1 X-1.7717 Y0.0000 Z1.0436 A-246.2466 F12.9696 
G1 X-1.7717 Y0.0000 Z1.0436 A-248.3878 F12.9696 
G1 X-1.7717 Y0.0000 Z1.0436 A-250.5291 F12.9696 
G1 X-1.7717 Y0.0000 Z1.0436 A-252.6704 F12.9696 
G1 X-1.7717 Y0.0000 Z1.0436 A-254.8116 F12.9696 
G1 X-1.7717 Y0.0000 Z1.0436 A-256.9529 F12.9696 
G1 X-1.7717 Y0.0000 Z1.0436 A-259.0942 F12.9696 
G1 X-1.7717 Y0.0000 Z1.0436 A-261.2355 F12.9696 
G1 X-1.7717 Y0.0000 Z1.0436 A-263.3767 F12.9696 
G1 X-1.7717 Y0.0000 Z1.0436 A-265.5180 F12.9696 
G1 X-1.7717 Y0.0000 Z1.0436 A-267.6593 F12.9696 
G1 X-1.7717 Y0.0000 Z1.0436 A-269.8006 F12.9696 
G1 X-1.7717 Y0.0000 Z1.0436 A-271.9418 F12.9696 
G1 X-1.7717 Y0.0000 Z1.0436 A-274.0831 F12.9696 
G1 X-1.7717 Y0.0000 Z1.0436 A-276.2244 F12.9696 
G1 X-1.7717 Y0.0000 Z1.0436 A-278.3657 F12.9696 
G1 X-1.7717 Y0.0000 Z1.0436 A-280.5069 F12.9696 
G1 X-1.7717 Y0.0000 Z1.0436 A-282.6482 F12.9696 
G1 X-1.7717 Y0.0000 Z1.0436 A-284.7895 F12.9696 
G1 X-1.7717 Y0.0000 Z1.0436 A-286.9308 F12.9696 
G1 X-1.7717 Y0.0000 Z1.0436 A-289.0720 F12.9696 
G1 X-1.7717 Y0.0000 Z1.0436 A-291.2133 F12.9696 
G1 X-1.7717 Y0.0000 Z1.0436 A-293.3546 F12.9696 
G1 X-1.7717 Y0.0000 Z1.0436 A-295.4959 F12.9696 
G1 X-1.7717 Y0.0000 Z1.0436 A-297.6371 F12.9696 
G1 X-1.7717 Y0.0000 Z1.0436 A-299.7784 F12.9696 
G1 X-1.7717 Y0.0000 Z1.0436 A-301.9197 F12.9696 
G1 X-1.7717 Y0.0000 Z1.0436 A-304.0610 F12.9696 
G1 X-1.7717 Y0.0000 Z1.0436 A-306.2022 F12.9696 
G1 X-1.7717 Y0.0000 Z1.0436 A-308.3435 F12.9696 
G1 X-1.7717 Y0.0000 Z1.0436 A-310.4848 F12.9696 
G1 X-1.7717 Y0.0000 Z1.0436 A-312.6261 F12.9696 
G1 X-1.7717 Y0.0000 Z1.0436 A-314.7673 F12.9696 
G1 X-1.7717 Y0.0000 Z1.0436 A-316.9086 F12.9696 
G1 X-1.7717 Y0.0000 Z1.0436 A-319.0499 F12.9696 
G1 X-1.7717 Y0.0000 Z1.0436 A-321.1912 F12.9696 
