(Exported by FreeCAD)
(Post Processor: linuxcnc_post)
(Output Time:2019-08-02 12:40:29.045317)
(begin preamble)
G17 G54 G40 G49 G80 G90
G21
(begin operation: Fixture)
(machine: not set, mm/min)
G54
G0 Z21.000
(finish operation: Fixture)
(begin operation: T1: 1/8" SF)
(machine: not set, mm/min)
(T1: 1/8" SF)
M6 T1
M3 S0
(finish operation: T1: 1/8" SF)
(begin operation: Pocket_Shape)
(machine: not set, mm/min)
(Pocket_Shape)
G0 Z12.000
G0 X103.493 Y27.696
G1 X103.493 Y27.696 Z9.365 F250.000
G1 X103.493 Y32.186 Z9.365 F1800.000
G1 X99.003 Y27.696 Z9.365 F1800.000
G1 X94.512 Y27.696 Z9.365 F1800.000
G1 X100.355 Y33.538 Z9.365 F1800.000
G1 X95.865 Y33.538 Z9.365 F1800.000
G1 X90.791 Y28.465 Z9.365 F1800.000
G1 X90.791 Y32.955 Z9.365 F1800.000
G1 X91.375 Y33.538 Z9.365 F1800.000
G1 X90.791 Y33.538 Z9.365 F1800.000
G1 X90.791 Y32.955 Z9.365 F1800.000
G1 X90.791 Y32.955 Z8.730 F250.000
G1 X90.791 Y33.538 Z8.730 F1800.000
G1 X91.375 Y33.538 Z8.730 F1800.000
G1 X90.791 Y32.955 Z8.730 F1800.000
G1 X90.791 Y28.465 Z8.730 F1800.000
G1 X95.865 Y33.538 Z8.730 F1800.000
G1 X100.355 Y33.538 Z8.730 F1800.000
G1 X94.512 Y27.696 Z8.730 F1800.000
G1 X99.003 Y27.696 Z8.730 F1800.000
G1 X103.493 Y32.186 Z8.730 F1800.000
G1 X103.493 Y27.696 Z8.730 F1800.000
G1 X103.493 Y27.696 Z8.095 F250.000
G1 X103.493 Y32.186 Z8.095 F1800.000
G1 X99.003 Y27.696 Z8.095 F1800.000
G1 X94.512 Y27.696 Z8.095 F1800.000
G1 X100.355 Y33.538 Z8.095 F1800.000
G1 X95.865 Y33.538 Z8.095 F1800.000
G1 X90.791 Y28.465 Z8.095 F1800.000
G1 X90.791 Y32.955 Z8.095 F1800.000
G1 X91.375 Y33.538 Z8.095 F1800.000
G1 X90.791 Y33.538 Z8.095 F1800.000
G1 X90.791 Y32.955 Z8.095 F1800.000
G1 X90.791 Y32.955 Z7.460 F250.000
G1 X90.791 Y33.538 Z7.460 F1800.000
G1 X91.375 Y33.538 Z7.460 F1800.000
G1 X90.791 Y32.955 Z7.460 F1800.000
G1 X90.791 Y28.465 Z7.460 F1800.000
G1 X95.865 Y33.538 Z7.460 F1800.000
G1 X100.355 Y33.538 Z7.460 F1800.000
G1 X94.512 Y27.696 Z7.460 F1800.000
G1 X99.003 Y27.696 Z7.460 F1800.000
G1 X103.493 Y32.186 Z7.460 F1800.000
G1 X103.493 Y27.696 Z7.460 F1800.000
G1 X103.493 Y27.696 Z6.825 F250.000
G1 X103.493 Y32.186 Z6.825 F1800.000
G1 X99.003 Y27.696 Z6.825 F1800.000
G1 X94.512 Y27.696 Z6.825 F1800.000
G1 X100.355 Y33.538 Z6.825 F1800.000
G1 X95.865 Y33.538 Z6.825 F1800.000
G1 X90.791 Y28.465 Z6.825 F1800.000
G1 X90.791 Y32.955 Z6.825 F1800.000
G1 X91.375 Y33.538 Z6.825 F1800.000
G1 X90.791 Y33.538 Z6.825 F1800.000
G1 X90.791 Y32.955 Z6.825 F1800.000
G1 X90.791 Y32.955 Z6.190 F250.000
G1 X90.791 Y33.538 Z6.190 F1800.000
G1 X91.375 Y33.538 Z6.190 F1800.000
G1 X90.791 Y32.955 Z6.190 F1800.000
G1 X90.791 Y28.465 Z6.190 F1800.000
G1 X95.865 Y33.538 Z6.190 F1800.000
G1 X100.355 Y33.538 Z6.190 F1800.000
G1 X94.512 Y27.696 Z6.190 F1800.000
G1 X99.003 Y27.696 Z6.190 F1800.000
G1 X103.493 Y32.186 Z6.190 F1800.000
G1 X103.493 Y27.696 Z6.190 F1800.000
G1 X103.493 Y27.696 Z5.555 F250.000
G1 X103.493 Y32.186 Z5.555 F1800.000
G1 X99.003 Y27.696 Z5.555 F1800.000
G1 X94.512 Y27.696 Z5.555 F1800.000
G1 X100.355 Y33.538 Z5.555 F1800.000
G1 X95.865 Y33.538 Z5.555 F1800.000
G1 X90.791 Y28.465 Z5.555 F1800.000
G1 X90.791 Y32.955 Z5.555 F1800.000
G1 X91.375 Y33.538 Z5.555 F1800.000
G1 X90.791 Y33.538 Z5.555 F1800.000
G1 X90.791 Y32.955 Z5.555 F1800.000
G1 X90.791 Y32.955 Z5.000 F250.000
G1 X90.791 Y33.538 Z5.000 F1800.000
G1 X91.375 Y33.538 Z5.000 F1800.000
G1 X90.791 Y32.955 Z5.000 F1800.000
G1 X90.791 Y28.465 Z5.000 F1800.000
G1 X95.865 Y33.538 Z5.000 F1800.000
G1 X100.355 Y33.538 Z5.000 F1800.000
G1 X94.512 Y27.696 Z5.000 F1800.000
G1 X99.003 Y27.696 Z5.000 F1800.000
G1 X103.493 Y32.186 Z5.000 F1800.000
G1 X103.493 Y27.696 Z5.000 F1800.000
G0 Z12.000
G0 X126.863 Y26.934
G1 X126.863 Y26.934 Z9.365 F250.000
G1 X126.863 Y31.424 Z9.365 F1800.000
G1 X122.373 Y26.934 Z9.365 F1800.000
G1 X117.882 Y26.934 Z9.365 F1800.000
G1 X124.106 Y33.157 Z9.365 F1800.000
G1 X119.616 Y33.157 Z9.365 F1800.000
G1 X115.177 Y28.719 Z9.365 F1800.000
G1 X115.177 Y33.157 Z9.365 F1800.000
G1 X119.616 Y33.157 Z9.365 F1800.000
G1 X119.616 Y33.157 Z8.730 F250.000
G1 X115.177 Y33.157 Z8.730 F1800.000
G1 X115.177 Y28.719 Z8.730 F1800.000
G1 X119.616 Y33.157 Z8.730 F1800.000
G1 X124.106 Y33.157 Z8.730 F1800.000
G1 X117.882 Y26.934 Z8.730 F1800.000
G1 X122.373 Y26.934 Z8.730 F1800.000
G1 X126.863 Y31.424 Z8.730 F1800.000
G1 X126.863 Y26.934 Z8.730 F1800.000
G1 X126.863 Y26.934 Z8.095 F250.000
G1 X126.863 Y31.424 Z8.095 F1800.000
G1 X122.373 Y26.934 Z8.095 F1800.000
G1 X117.882 Y26.934 Z8.095 F1800.000
G1 X124.106 Y33.157 Z8.095 F1800.000
G1 X119.616 Y33.157 Z8.095 F1800.000
G1 X115.177 Y28.719 Z8.095 F1800.000
G1 X115.177 Y33.157 Z8.095 F1800.000
G1 X119.616 Y33.157 Z8.095 F1800.000
G1 X119.616 Y33.157 Z7.460 F250.000
G1 X115.177 Y33.157 Z7.460 F1800.000
G1 X115.177 Y28.719 Z7.460 F1800.000
G1 X119.616 Y33.157 Z7.460 F1800.000
G1 X124.106 Y33.157 Z7.460 F1800.000
G1 X117.882 Y26.934 Z7.460 F1800.000
G1 X122.373 Y26.934 Z7.460 F1800.000
G1 X126.863 Y31.424 Z7.460 F1800.000
G1 X126.863 Y26.934 Z7.460 F1800.000
G1 X126.863 Y26.934 Z6.825 F250.000
G1 X126.863 Y31.424 Z6.825 F1800.000
G1 X122.373 Y26.934 Z6.825 F1800.000
G1 X117.882 Y26.934 Z6.825 F1800.000
G1 X124.106 Y33.157 Z6.825 F1800.000
G1 X119.616 Y33.157 Z6.825 F1800.000
G1 X115.177 Y28.719 Z6.825 F1800.000
G1 X115.177 Y33.157 Z6.825 F1800.000
G1 X119.616 Y33.157 Z6.825 F1800.000
G1 X119.616 Y33.157 Z6.190 F250.000
G1 X115.177 Y33.157 Z6.190 F1800.000
G1 X115.177 Y28.719 Z6.190 F1800.000
G1 X119.616 Y33.157 Z6.190 F1800.000
G1 X124.106 Y33.157 Z6.190 F1800.000
G1 X117.882 Y26.934 Z6.190 F1800.000
G1 X122.373 Y26.934 Z6.190 F1800.000
G1 X126.863 Y31.424 Z6.190 F1800.000
G1 X126.863 Y26.934 Z6.190 F1800.000
G1 X126.863 Y26.934 Z5.555 F250.000
G1 X126.863 Y31.424 Z5.555 F1800.000
G1 X122.373 Y26.934 Z5.555 F1800.000
G1 X117.882 Y26.934 Z5.555 F1800.000
G1 X124.106 Y33.157 Z5.555 F1800.000
G1 X119.616 Y33.157 Z5.555 F1800.000
G1 X115.177 Y28.719 Z5.555 F1800.000
G1 X115.177 Y33.157 Z5.555 F1800.000
G1 X119.616 Y33.157 Z5.555 F1800.000
G1 X119.616 Y33.157 Z5.000 F250.000
G1 X115.177 Y33.157 Z5.000 F1800.000
G1 X115.177 Y28.719 Z5.000 F1800.000
G1 X119.616 Y33.157 Z5.000 F1800.000
G1 X124.106 Y33.157 Z5.000 F1800.000
G1 X117.882 Y26.934 Z5.000 F1800.000
G1 X122.373 Y26.934 Z5.000 F1800.000
G1 X126.863 Y31.424 Z5.000 F1800.000
G1 X126.863 Y26.934 Z5.000 F1800.000
G0 Z12.000
(finish operation: Pocket_Shape)
(begin operation: Drilling)
(machine: not set, mm/min)
(Drilling)
(Begin Drilling)
G0 Z31.000
G90
G99
G81 X93.139 Y18.923 Z0.000 F250.000 R12.000
G80
G81 X116.466 Y16.114 Z0.000 F250.000 R12.000
G80
G81 X114.593 Y44.209 Z0.000 F250.000 R12.000
G80
G81 X91.010 Y44.464 Z0.000 F250.000 R12.000
G80
G0 Z31.000
(finish operation: Drilling)
(begin operation: Drilling001)
(machine: not set, mm/min)
(Drilling001)
(Begin Drilling)
G0 Z31.000
G90
G99
G83 X32.134 Y19.594 Z0.000 F250.000 Q2.381 R10.000
G80
G0 Z17.000
G83 X26.707 Y42.372 Z0.000 F250.000 Q2.381 R10.000
G80
G0 Z17.000
G83 X41.691 Y41.521 Z0.000 F250.000 Q2.381 R10.000
G80
G0 Z17.000
G0 Z31.000
(finish operation: Drilling001)
(begin postamble)
M05
G17 G54 G90 G80 G40
M2
